; generated by Slic3r 0.8.3-dev on 2012-06-12 at 00:35:49

; layer_height = 0.2
; perimeters = 2
; solid_layers = 5
; fill_density = 0.5
; nozzle_diameter = 0.5
; filament_diameter = 2.9
; extrusion_multiplier = 1
; perimeter_speed = 90
; infill_speed = 200
; travel_speed = 200
; scale = 1
; single wall width = 0.70mm

;G28 ; home all axes
G90 ; use absolute coordinates
G21 ; set units to millimeters
G92 E0 ; reset extrusion distance
M82 ; use absolute distances for extrusion
G1 Z0.200 F12000.000
G1 X39.877 Y57.355
G1 F600.000 E1.00000
G1 X40.147 Y57.015 F1080.000 E1.00864
G1 X41.507 Y55.725 E1.04593
G1 X42.027 Y55.345 E1.05875
G1 X42.567 Y55.015 E1.07134
G1 X43.777 Y54.415 E1.09821
G1 X44.307 Y54.225 E1.10941
G1 X45.297 Y53.975 E1.12973
G1 X46.277 Y53.815 E1.14948
G1 X47.497 Y53.735 E1.17381
G1 X108.997 Y56.555 E2.39869
G1 X116.827 Y57.415 E2.55541
G1 X117.897 Y57.625 E2.57710
G1 X118.677 Y57.895 E2.59352
G1 X119.167 Y58.125 E2.60429
G1 X119.407 Y58.255 E2.60972
G1 X119.867 Y58.555 E2.62065
G1 X120.297 Y58.895 E2.63156
G1 X121.947 Y60.495 E2.67729
G1 X122.267 Y60.895 E2.68748
G1 X122.557 Y61.315 E2.69763
G1 X122.807 Y61.765 E2.70787
G1 X123.017 Y62.235 E2.71812
G1 X123.257 Y62.965 E2.73340
G1 X123.367 Y63.475 E2.74378
G1 X123.447 Y64.235 E2.75899
G1 X123.427 Y65.005 E2.77431
G1 X122.147 Y72.315 E2.92197
G1 X121.977 Y72.905 E2.93418
G1 X121.877 Y73.185 E2.94010
G1 X121.757 Y73.465 E2.94616
G1 X121.477 Y74.005 E2.95826
G1 X102.857 Y102.305 E3.63225
G1 X102.447 Y102.805 E3.64512
G1 X101.977 Y103.265 E3.65820
G1 X100.587 Y104.335 E3.69310
G1 X100.057 Y104.635 E3.70522
G1 X98.557 Y105.245 E3.73744
G1 X97.707 Y105.495 E3.75507
G1 X96.017 Y105.855 E3.78944
G1 X92.037 Y106.205 E3.86893
G1 X90.457 Y106.245 E3.90038
G1 X88.377 Y106.225 E3.94177
G1 X51.337 Y103.395 E4.68085
G1 X49.937 Y103.135 E4.70919
G1 X48.967 Y102.865 E4.72922
G1 X47.557 Y102.345 E4.75912
G1 X46.917 Y102.035 E4.77327
G1 X45.437 Y101.135 E4.80773
G1 X45.227 Y100.985 E4.81286
G1 X44.807 Y100.645 E4.82362
G1 X43.537 Y99.425 E4.85865
G1 X43.247 Y99.095 E4.86739
G1 X42.187 Y97.635 E4.90329
G1 X41.727 Y96.875 E4.92096
G1 X40.787 Y94.965 E4.96332
G1 X40.017 Y92.885 E5.00745
G1 X39.467 Y90.795 E5.05044
G1 X36.627 Y69.815 E5.47167
G1 X36.517 Y67.745 E5.51291
G1 X36.557 Y66.335 E5.54097
G1 X36.797 Y64.375 E5.58026
G1 X36.927 Y63.675 E5.59443
G1 X37.247 Y62.445 E5.61971
G1 X37.897 Y60.665 E5.65741
G1 X38.227 Y59.935 E5.67335
G1 X38.777 Y58.925 E5.69623
G1 X39.247 Y58.195 E5.71351
G1 X39.814 Y57.439 E5.73231
G1 F600.000 E4.73231
G92 E0
G1 X114.055 Y70.228 F12000.000
G1 F600.000 E1.00000
G1 X114.217 Y69.909 F1080.000 E1.00711
G1 X115.633 Y70.158 E1.03572
G1 X115.675 Y70.513 E1.04283
G1 X114.770 Y70.911 E1.06250
G1 X114.131 Y70.300 E1.08008
G1 F600.000 E0.08008
G92 E0
G1 X109.380 Y69.409 F12000.000
G1 F600.000 E1.00000
G1 X107.876 Y69.144 F1080.000 E1.03039
G1 X108.037 Y68.229 E1.04887
G1 X106.350 Y68.071 E1.08259
G1 X99.324 Y66.948 E1.22414
G1 X97.936 Y66.807 E1.25191
G1 X96.890 Y66.848 E1.27274
G1 X96.080 Y67.082 E1.28951
G1 X95.531 Y67.471 E1.30290
G1 X95.266 Y67.766 E1.31078
G1 X94.998 Y68.010 E1.31799
G1 X94.614 Y68.478 E1.33004
G1 X94.277 Y69.187 E1.34565
G1 X94.036 Y70.150 E1.36541
G1 X93.889 Y71.443 E1.39129
G1 X93.318 Y78.955 E1.54119
G1 X92.816 Y82.669 E1.61575
G1 X92.547 Y90.436 E1.77038
G1 X92.131 Y93.340 E1.82874
G1 X92.030 Y94.645 E1.85478
G1 X92.223 Y95.929 E1.88063
G1 X93.056 Y96.877 E1.90573
G1 X94.116 Y97.257 E1.92813
G1 X95.142 Y97.228 E1.94855
G1 X96.143 Y96.805 E1.97018
G1 X96.620 Y95.931 E1.98997
G1 X96.646 Y95.211 E2.00432
G1 X96.615 Y94.657 E2.01535
G1 X96.985 Y94.561 E2.02296
G1 X97.129 Y94.572 E2.02581
G1 X97.281 Y94.653 E2.02924
G1 X97.519 Y94.883 E2.03583
G1 X97.773 Y95.232 E2.04442
G1 X97.997 Y95.628 E2.05347
G1 X98.146 Y95.946 E2.06045
G1 X98.215 Y96.185 E2.06540
G1 X98.235 Y96.437 E2.07044
G1 X98.198 Y96.808 E2.07786
G1 X98.082 Y97.310 E2.08811
G1 X97.867 Y97.820 E2.09911
G1 X97.530 Y98.284 E2.11053
G1 X97.025 Y98.681 E2.12331
G1 X96.208 Y99.002 E2.14077
G1 X95.128 Y99.242 E2.16279
G1 X91.865 Y99.537 E2.22798
G1 X90.309 Y99.573 E2.25894
G1 X88.864 Y99.573 E2.28768
G1 X88.203 Y99.517 E2.30089
G1 X87.613 Y99.368 E2.31299
G1 X87.072 Y99.087 E2.32512
G1 X86.516 Y98.579 E2.34010
G1 X85.958 Y97.832 E2.35865
G1 X85.451 Y96.898 E2.37980
G1 X85.038 Y95.830 E2.40259
G1 X84.745 Y94.678 E2.42623
G1 X84.577 Y93.435 E2.45117
G1 X84.538 Y92.096 E2.47783
G1 X84.633 Y90.656 E2.50655
G1 X86.023 Y83.657 E2.64851
G1 X86.137 Y82.784 E2.66603
G1 X86.751 Y74.098 E2.83928
G1 X87.395 Y70.520 E2.91161
G1 X87.841 Y68.905 E2.94495
G1 X88.384 Y67.465 E2.97557
G1 X89.025 Y66.221 E3.00342
G1 X89.758 Y65.195 E3.02849
G1 X90.574 Y64.405 E3.05111
G1 X91.493 Y63.840 E3.07255
G1 X92.575 Y63.450 E3.09544
G1 X93.870 Y63.212 E3.12164
G1 X95.405 Y63.113 E3.15224
G1 X99.144 Y63.245 E3.22667
G1 X107.041 Y64.219 E3.38498
G1 X108.682 Y64.569 E3.41837
G1 X108.904 Y63.312 E3.44376
G1 X109.730 Y63.458 E3.46045
G1 X110.195 Y65.591 E3.50388
G1 X110.224 Y66.911 E3.53015
G1 X110.163 Y67.502 E3.54199
G1 X109.420 Y69.312 E3.58091
G1 F600.000 E2.58091
G92 E0
G1 X115.124 Y64.763 F12000.000
G1 F600.000 E1.00000
G1 X115.081 Y64.408 F1080.000 E1.00711
G1 X115.987 Y64.010 E1.02678
G1 X116.702 Y64.693 E1.04645
G1 X116.540 Y65.012 E1.05357
G1 X115.227 Y64.781 E1.08009
G1 X115.007 Y63.699 F12000.000
G1 X115.832 Y63.337 F1080.000 E1.09802
G1 X116.362 Y63.431 E1.10873
G1 X117.454 Y64.473 E1.13876
G1 X117.216 Y65.821 E1.16598
G1 X110.689 Y64.670 E1.29784
G1 X110.872 Y65.510 E1.31496
G1 X110.903 Y66.938 E1.34338
G1 X110.828 Y67.670 E1.35801
G1 X110.463 Y68.558 E1.37711
G1 X116.544 Y69.630 E1.49997
G1 X116.307 Y70.977 E1.52719
G1 X114.924 Y71.584 E1.55722
G1 X114.395 Y71.490 E1.56793
G1 X113.743 Y70.868 E1.58586
G1 X107.090 Y69.695 E1.72027
G1 X107.241 Y68.836 E1.73762
G1 X106.268 Y68.745 E1.75705
G1 X99.239 Y67.622 E1.89869
G1 X97.914 Y67.487 E1.92517
G1 X96.999 Y67.523 E1.94340
G1 X96.379 Y67.702 E1.95625
G1 X95.985 Y67.981 E1.96585
G1 X95.747 Y68.245 E1.97291
G1 X95.491 Y68.478 E1.97981
G1 X95.191 Y68.844 E1.98921
G1 X94.919 Y69.417 E2.00184
G1 X94.705 Y70.271 E2.01935
G1 X94.566 Y71.502 E2.04399
G1 X93.991 Y79.039 E2.19439
G1 X93.491 Y82.741 E2.26871
G1 X93.223 Y90.508 E2.42334
G1 X92.806 Y93.415 E2.48176
G1 X92.712 Y94.620 E2.50582
G1 X92.864 Y95.631 E2.52616
G1 X93.450 Y96.297 E2.54380
G1 X94.225 Y96.575 E2.56018
G1 X94.995 Y96.553 E2.57552
G1 X95.661 Y96.272 E2.58990
G1 X95.948 Y95.747 E2.60179
G1 X95.967 Y95.217 E2.61234
G1 X95.942 Y94.771 E2.62123
G1 X95.988 Y94.447 E2.62773
G1 X96.180 Y94.193 E2.63408
G1 X96.516 Y93.982 E2.64196
G1 X96.924 Y93.876 E2.65036
G1 X97.321 Y93.906 E2.65828
G1 X97.683 Y94.098 E2.66643
G1 X98.033 Y94.435 E2.67610
G1 X98.345 Y94.864 E2.68665
G1 X98.600 Y95.317 E2.69698
G1 X98.783 Y95.706 E2.70554
G1 X98.886 Y96.062 E2.71291
G1 X98.917 Y96.444 E2.72055
G1 X98.868 Y96.919 E2.73004
G1 X98.730 Y97.520 E2.74230
G1 X98.462 Y98.155 E2.75602
G1 X98.024 Y98.760 E2.77088
G1 X97.366 Y99.276 E2.78752
G1 X96.407 Y99.653 E2.80802
G1 X95.245 Y99.911 E2.83169
G1 X91.892 Y100.215 E2.89869
G1 X90.317 Y100.251 E2.93003
G1 X88.836 Y100.251 E2.95950
G1 X88.090 Y100.189 E2.97438
G1 X87.370 Y100.006 E2.98916
G1 X86.680 Y99.648 E3.00464
G1 X86.012 Y99.037 E3.02265
G1 X85.385 Y98.199 E3.04347
G1 X84.834 Y97.183 E3.06646
G1 X84.390 Y96.037 E3.09092
G1 X84.078 Y94.807 E3.11616
G1 X83.900 Y93.491 E3.14258
G1 X83.859 Y92.084 E3.17059
G1 X83.957 Y90.583 E3.20052
G1 X85.353 Y83.551 E3.34316
G1 X85.461 Y82.716 E3.35991
G1 X86.078 Y74.008 E3.53358
G1 X86.735 Y70.361 E3.60731
G1 X87.195 Y68.694 E3.64172
G1 X87.763 Y67.189 E3.67374
G1 X88.445 Y65.866 E3.70334
G1 X89.242 Y64.751 E3.73061
G1 X90.156 Y63.865 E3.75593
G1 X91.197 Y63.226 E3.78024
G1 X92.398 Y62.793 E3.80564
G1 X93.787 Y62.538 E3.83374
G1 X95.387 Y62.434 E3.86563
G1 X99.195 Y62.569 E3.94144
G1 X107.166 Y63.552 E4.10123
G1 X108.136 Y63.759 E4.12098
G1 X108.353 Y62.526 E4.14588
G1 X114.903 Y63.681 E4.27820
G1 F600.000 E3.27820
G92 E0
G1 X109.711 Y65.637 F12000.000
G1 F600.000 E1.00000
G1 X109.315 Y65.241 F2400.000 E1.01115
G1 X108.085 Y64.979 F12000.000
G1 X109.733 Y66.627 F2400.000 E1.05752
G1 X109.689 Y67.551 F12000.000
G1 X106.855 Y64.717 F2400.000 E1.13727
G1 X105.692 Y64.523 F12000.000
G1 X108.985 Y67.816 F2400.000 E1.22993
G1 X107.918 Y67.716 F12000.000
G1 X104.553 Y64.351 F2400.000 E1.32460
G1 X103.441 Y64.208 F12000.000
G1 X106.850 Y67.616 F2400.000 E1.42051
G1 X105.727 Y67.461 F12000.000
G1 X102.340 Y64.074 F2400.000 E1.51583
G1 X101.246 Y63.948 F12000.000
G1 X104.582 Y67.285 F2400.000 E1.60970
G1 X103.418 Y67.088 F12000.000
G1 X100.172 Y63.842 F2400.000 E1.70105
G1 X99.106 Y63.743 F12000.000
G1 X102.254 Y66.891 F2400.000 E1.78964
G1 X101.093 Y66.699 F12000.000
G1 X98.069 Y63.676 F2400.000 E1.87471
G1 X97.041 Y63.615 F12000.000
G1 X99.952 Y66.525 F2400.000 E1.95660
G1 X98.854 Y66.397 F12000.000
G1 X96.060 Y63.602 F2400.000 E2.03524
G1 X95.092 Y63.602 F12000.000
G1 X97.828 Y66.338 F2400.000 E2.11222
G1 X96.912 Y66.390 F12000.000
G1 X94.183 Y63.661 F2400.000 E2.18901
G1 X93.323 Y63.768 F12000.000
G1 X96.162 Y66.607 F2400.000 E2.26889
G1 X95.550 Y66.964 F12000.000
G1 X92.511 Y63.925 F2400.000 E2.35440
G1 X91.800 Y64.182 F12000.000
G1 X95.039 Y67.421 F2400.000 E2.44555
G1 X94.562 Y67.911 F12000.000
G1 X91.168 Y64.517 F2400.000 E2.54105
G1 X90.609 Y64.926 F12000.000
G1 X94.157 Y68.474 F2400.000 E2.64088
G1 X93.845 Y69.130 F12000.000
G1 X90.117 Y65.402 F2400.000 E2.74578
G1 X89.706 Y65.960 F12000.000
G1 X93.647 Y69.900 F2400.000 E2.85666
G1 X93.508 Y70.729 F12000.000
G1 X89.322 Y66.543 F2400.000 E2.97444
G1 X88.993 Y67.183 F12000.000
G1 X93.410 Y71.600 F2400.000 E3.09873
G1 X93.355 Y72.512 F12000.000
G1 X88.692 Y67.849 F2400.000 E3.22993
G1 X88.426 Y68.552 F12000.000
G1 X93.299 Y73.425 F2400.000 E3.36705
G1 X93.244 Y74.338 F12000.000
G1 X88.188 Y69.281 F2400.000 E3.50931
G1 X87.979 Y70.039 F12000.000
G1 X93.189 Y75.250 F2400.000 E3.65592
G1 X93.134 Y76.163 F12000.000
G1 X87.787 Y70.817 F2400.000 E3.80635
G1 X87.622 Y71.618 F12000.000
G1 X93.057 Y77.053 F2400.000 E3.95927
G1 X92.971 Y77.937 F12000.000
G1 X87.467 Y72.432 F2400.000 E4.11414
G1 X87.337 Y73.270 F12000.000
G1 X92.873 Y78.805 F2400.000 E4.26989
G1 X92.762 Y79.664 F12000.000
G1 X87.212 Y74.113 F2400.000 E4.42607
G1 X87.115 Y74.984 F12000.000
G1 X92.647 Y80.516 F2400.000 E4.58173
G1 X92.532 Y81.369 F12000.000
G1 X87.025 Y75.862 F2400.000 E4.73668
G1 X86.948 Y76.753 F12000.000
G1 X92.417 Y82.222 F2400.000 E4.89056
G1 X92.317 Y83.089 F12000.000
G1 X86.881 Y77.653 F2400.000 E5.04351
G1 X86.821 Y78.562 F12000.000
G1 X92.260 Y84.001 F2400.000 E5.19656
G1 X92.236 Y84.944 F12000.000
G1 X86.779 Y79.488 F2400.000 E5.35009
G1 X86.738 Y80.414 F12000.000
G1 X92.230 Y85.907 F2400.000 E5.50464
G1 X92.225 Y86.869 F12000.000
G1 X86.696 Y81.341 F2400.000 E5.66020
G1 X86.643 Y82.256 F12000.000
G1 X92.211 Y87.824 F2400.000 E5.81688
G1 X92.185 Y88.765 F12000.000
G1 X86.552 Y83.132 F2400.000 E5.97537
G1 X86.419 Y83.968 F12000.000
G1 X92.132 Y89.681 F2400.000 E6.13610
G1 X92.067 Y90.584 F12000.000
G1 X86.262 Y84.778 F2400.000 E6.29945
G1 X86.083 Y85.566 F12000.000
G1 X91.946 Y91.430 F2400.000 E6.46444
G1 X91.825 Y92.277 F12000.000
G1 X85.903 Y86.355 F2400.000 E6.63107
G1 X85.724 Y87.143 F12000.000
G1 X91.704 Y93.123 F2400.000 E6.79932
G1 X91.613 Y94.001 F12000.000
G1 X85.554 Y87.943 F2400.000 E6.96979
G1 X85.392 Y88.748 F12000.000
G1 X91.552 Y94.907 F2400.000 E7.14310
G1 X91.723 Y96.047 F12000.000
G1 X85.253 Y89.578 F2400.000 E7.32512
G1 X85.127 Y90.419 F12000.000
G1 X93.658 Y98.950 F2400.000 E7.56518
G1 X94.534 Y98.858 F12000.000
G1 X93.197 Y97.521 F2400.000 E7.60280
G1 X94.369 Y97.724 F12000.000
G1 X95.391 Y98.747 F2400.000 E7.63157
G1 X96.169 Y98.558 F12000.000
G1 X95.249 Y97.637 F2400.000 E7.65746
G1 X95.930 Y97.350 F12000.000
G1 X96.869 Y98.289 F2400.000 E7.68389
G1 X97.414 Y97.866 F12000.000
G1 X96.519 Y96.971 F2400.000 E7.70907
G1 X96.861 Y96.345 F12000.000
G1 X97.667 Y97.150 F2400.000 E7.73173
G1 X97.554 Y96.070 F12000.000
G1 X97.105 Y95.621 F2400.000 E7.74435
G1 F600.000 E6.74435
G92 E0
G1 X92.756 Y99.016 F12000.000
G1 F600.000 E1.00000
G1 X85.058 Y91.318 F2400.000 E1.21660
G1 X85.029 Y92.257 F12000.000
G1 X91.834 Y99.061 F2400.000 E1.40806
G1 X90.888 Y99.083 F12000.000
G1 X85.068 Y93.263 F2400.000 E1.57182
G1 X85.224 Y94.387 F12000.000
G1 X89.929 Y99.093 F2400.000 E1.70421
G1 X88.949 Y99.080 F12000.000
G1 X85.610 Y95.741 F2400.000 E1.79816
G1 F600.000 E0.79816
G92 E0
G1 X86.823 Y97.923 F12000.000
G1 F600.000 E1.00000
G1 X87.221 Y98.321 F2400.000 E1.01120
G1 F600.000 E0.01120
G92 E0
G1 X109.789 Y69.349 F12000.000
G1 F600.000 E1.00000
G1 X109.985 Y69.299 F2400.000 E1.00402
G1 X110.820 Y69.530 E1.02127
G1 X111.508 Y69.647 E1.03516
G1 X113.926 Y70.003 E1.08378
G1 F600.000 E0.08378
G92 E0
G1 X109.789 Y69.349 F12000.000
G1 F600.000 E1.00000
G1 X109.659 Y69.244 F2400.000 E1.00332
G1 F600.000 E0.00332
G92 E0
G1 X111.016 Y63.893 F12000.000
G1 F600.000 E1.00000
G1 X111.690 Y64.015 F2400.000 E1.01363
G1 X114.909 Y64.510 E1.07843
G1 F600.000 E0.07843
G92 E0
G1 X111.016 Y63.893 F12000.000
G1 F600.000 E1.00000
G1 X110.082 Y63.668 F2400.000 E1.01912
G1 X110.005 Y63.710 E1.02086
G1 X109.967 Y63.695 E1.02167
G1 F600.000 E0.02167
G92 E0
G1 X75.207 Y94.988 F12000.000
G1 F600.000 E1.00000
G1 X75.369 Y95.307 F1080.000 E1.00711
G1 X74.654 Y95.990 E1.02678
G1 X73.749 Y95.592 E1.04645
G1 X73.791 Y95.237 E1.05357
G1 X75.104 Y95.006 E1.08009
G1 F600.000 E0.08009
G92 E0
G1 X68.862 Y94.417 F12000.000
G1 F600.000 E1.00000
G1 X68.402 Y96.541 F1080.000 E1.04325
G1 X67.571 Y96.688 E1.06003
G1 X67.352 Y95.447 E1.08509
G1 X63.899 Y96.092 E1.15497
G1 X57.805 Y96.792 E1.27703
G1 X54.062 Y96.923 E1.35154
G1 X52.524 Y96.821 E1.38220
G1 X51.224 Y96.582 E1.40851
G1 X50.136 Y96.188 E1.43153
G1 X49.212 Y95.620 E1.45311
G1 X48.390 Y94.824 E1.47587
G1 X47.653 Y93.793 E1.50109
G1 X47.008 Y92.543 E1.52908
G1 X46.462 Y91.096 E1.55985
G1 X46.015 Y89.477 E1.59326
G1 X45.668 Y87.756 E1.62819
G1 X44.989 Y81.265 E1.75804
G1 X44.787 Y77.204 E1.83894
G1 X44.674 Y76.329 E1.85648
G1 X43.546 Y71.004 E1.96479
G1 X43.296 Y69.352 E1.99803
G1 X43.203 Y67.906 E2.02687
G1 X43.244 Y66.565 E2.05355
G1 X43.412 Y65.322 E2.07851
G1 X43.705 Y64.169 E2.10218
G1 X44.119 Y63.099 E2.12500
G1 X44.625 Y62.162 E2.14618
G1 X45.184 Y61.414 E2.16477
G1 X45.740 Y60.905 E2.17976
G1 X46.281 Y60.624 E2.19189
G1 X46.871 Y60.474 E2.20399
G1 X47.531 Y60.418 E2.21719
G1 X51.481 Y60.505 E2.29579
G1 X53.803 Y60.741 E2.34223
G1 X54.886 Y60.977 E2.36429
G1 X55.705 Y61.298 E2.38178
G1 X56.213 Y61.697 E2.39462
G1 X56.552 Y62.164 E2.40612
G1 X56.768 Y62.677 E2.41718
G1 X56.884 Y63.181 E2.42747
G1 X56.921 Y63.553 E2.43491
G1 X56.899 Y63.807 E2.43998
G1 X56.828 Y64.049 E2.44499
G1 X56.677 Y64.369 E2.45205
G1 X56.450 Y64.768 E2.46117
G1 X56.193 Y65.120 E2.46984
G1 X55.952 Y65.352 E2.47650
G1 X55.798 Y65.434 E2.47998
G1 X55.653 Y65.445 E2.48286
G1 X55.282 Y65.349 E2.49049
G1 X55.314 Y64.792 E2.50158
G1 X55.287 Y64.071 E2.51594
G1 X54.811 Y63.197 E2.53573
G1 X53.810 Y62.773 E2.55737
G1 X52.784 Y62.743 E2.57780
G1 X51.724 Y63.123 E2.60021
G1 X50.890 Y64.071 E2.62531
G1 X50.697 Y65.355 E2.65116
G1 X50.799 Y66.660 E2.67720
G1 X51.215 Y69.565 E2.73557
G1 X51.490 Y77.319 E2.88995
G1 X52.279 Y83.841 E3.02066
G1 X52.735 Y89.838 E3.14031
G1 X52.972 Y90.799 E3.16002
G1 X53.307 Y91.507 E3.17559
G1 X53.689 Y91.974 E3.18759
G1 X53.954 Y92.215 E3.19473
G1 X54.217 Y92.506 E3.20253
G1 X54.765 Y92.893 E3.21588
G1 X55.573 Y93.123 E3.23260
G1 X56.616 Y93.162 E3.25336
G1 X65.015 Y91.921 E3.42229
G1 X66.703 Y91.763 E3.45601
G1 X66.543 Y90.856 E3.47434
G1 X68.051 Y90.590 E3.50482
G1 X68.830 Y92.495 E3.54577
G1 X68.891 Y93.090 E3.55768
G1 X68.864 Y94.312 E3.58199
G1 F600.000 E2.58199
G92 E0
G1 X72.884 Y90.091 F12000.000
G1 F600.000 E1.00000
G1 X72.723 Y89.772 F1080.000 E1.00711
G1 X73.437 Y89.089 E1.02678
G1 X74.343 Y89.487 E1.04645
G1 X74.300 Y89.842 E1.05357
G1 X72.987 Y90.073 E1.08008
G1 X72.410 Y89.132 F12000.000
G1 X73.062 Y88.510 F1080.000 E1.09801
G1 X73.592 Y88.416 E1.10872
