; generated by Slic3r 0.8.3-dev on 2012-06-11 at 23:22:16

; layer_height = 0.2
; perimeters = 2
; solid_layers = 5
; fill_density = 0.5
; nozzle_diameter = 0.5
; filament_diameter = 2.9
; extrusion_multiplier = 1
; perimeter_speed = 90
; infill_speed = 200
; travel_speed = 200
; scale = 1
; single wall width = 0.70mm

;G28 ; home all axes
G90 ; use absolute coordinates
G21 ; set units to millimeters
G92 E0 ; reset extrusion distance
M82 ; use absolute distances for extrusion
G1 Z0.200 F12000.000
G1 X61.700 Y51.176
G1 F600.000 E1.00000
G1 X119.390 Y59.136 F1080.000 E2.15866
G1 X120.100 Y59.276 E2.17306
G1 X121.080 Y59.536 E2.19324
G1 X121.580 Y59.716 E2.20381
G1 X123.030 Y60.456 E2.23620
G1 X123.290 Y60.616 E2.24227
G1 X123.790 Y60.986 E2.25465
G1 X124.690 Y61.796 E2.27874
G1 X125.010 Y62.116 E2.28774
G1 X125.310 Y62.456 E2.29676
G1 X126.080 Y63.476 E2.32219
G1 X126.550 Y64.206 E2.33946
G1 X127.100 Y65.216 E2.36234
G1 X127.430 Y65.946 E2.37828
G1 X128.090 Y67.766 E2.41680
G1 X128.400 Y68.996 E2.44204
G1 X128.700 Y70.976 E2.48188
G1 X128.760 Y71.616 E2.49467
G1 X128.790 Y73.556 E2.53327
G1 X128.660 Y75.456 E2.57116
G1 X126.210 Y94.346 E2.95014
G1 X125.750 Y96.506 E2.99408
G1 X125.120 Y98.706 E3.03961
G1 X124.550 Y100.216 E3.07172
G1 X124.280 Y100.826 E3.08500
G1 X123.600 Y102.156 E3.11472
G1 X123.120 Y102.946 E3.13311
G1 X122.310 Y104.066 E3.16061
G1 X121.650 Y104.836 E3.18079
G1 X120.540 Y105.916 E3.21160
G1 X119.890 Y106.416 E3.22791
G1 X118.410 Y107.316 E3.26238
G1 X117.980 Y107.536 E3.27199
G1 X116.330 Y108.156 E3.30706
G1 X115.380 Y108.416 E3.32665
G1 X113.990 Y108.676 E3.35479
G1 X113.280 Y108.766 E3.36903
G1 X112.050 Y108.846 E3.39355
G1 X111.980 Y108.846 E3.39494
G1 X111.210 Y108.876 E3.41027
G1 X97.660 Y108.716 E3.67988
G1 X89.830 Y107.856 E3.83660
G1 X56.870 Y100.076 E4.51039
G1 X56.030 Y99.806 E4.52794
G1 X54.780 Y99.296 E4.55480
G1 X54.480 Y99.146 E4.56148
G1 X53.910 Y98.796 E4.57479
G1 X52.760 Y97.916 E4.60360
G1 X52.140 Y97.306 E4.62090
G1 X51.190 Y96.026 E4.65262
G1 X33.180 Y68.586 E5.30565
G1 X32.900 Y68.046 E5.31775
G1 X32.780 Y67.766 E5.32381
G1 X32.590 Y67.196 E5.33576
G1 X32.510 Y66.896 E5.34194
G1 X31.540 Y61.446 E5.45208
G1 X31.540 Y61.416 E5.45267
G1 X31.240 Y59.536 E5.49055
G1 X31.220 Y59.266 E5.49594
G1 X31.230 Y58.736 E5.50648
G1 X31.280 Y58.206 E5.51708
G1 X31.320 Y57.946 E5.52231
G1 X31.520 Y57.166 E5.53833
G1 X31.710 Y56.666 E5.54897
G1 X32.080 Y55.956 E5.56490
G1 X32.220 Y55.736 E5.57009
G1 X32.710 Y55.096 E5.58613
G1 X34.360 Y53.496 E5.63185
G1 X34.780 Y53.166 E5.64248
G1 X35.450 Y52.736 E5.65832
G1 X35.930 Y52.506 E5.66891
G1 X36.430 Y52.316 E5.67955
G1 X37.200 Y52.116 E5.69538
G1 X38.190 Y51.946 E5.71537
G1 X45.670 Y51.136 E5.86506
G1 X59.240 Y51.016 E6.13505
G1 X61.250 Y51.126 E6.17510
G1 X61.596 Y51.164 E6.18202
G1 F600.000 E5.18202
G92 E0
G1 X90.126 Y100.269 F12000.000
G1 F600.000 E1.00000
G1 X91.542 Y100.519 F1080.000 E1.02861
G1 X91.585 Y100.874 E1.03572
G1 X90.680 Y101.271 E1.05539
G1 X89.965 Y100.588 E1.07506
G1 X90.079 Y100.363 E1.08009
G1 F600.000 E0.08009
G92 E0
G1 X91.034 Y95.123 F12000.000
G1 F600.000 E1.00000
G1 X90.991 Y94.768 F1080.000 E1.00711
G1 X91.896 Y94.371 E1.02678
G1 X92.611 Y95.054 E1.04645
G1 X92.450 Y95.373 E1.05357
G1 X91.137 Y95.141 E1.08008
G1 F600.000 E0.08008
G92 E0
G1 X96.504 Y97.777 F12000.000
G1 F600.000 E1.00000
G1 X97.282 Y95.871 F1080.000 E1.04095
G1 X98.791 Y96.137 E1.07143
G1 X98.631 Y97.045 E1.08976
G1 X108.718 Y98.443 E1.29237
G1 X109.761 Y98.405 E1.31314
G1 X110.569 Y98.174 E1.32985
G1 X111.117 Y97.787 E1.34320
G1 X111.379 Y97.496 E1.35100
G1 X111.645 Y97.255 E1.35814
G1 X112.027 Y96.788 E1.37014
G1 X112.361 Y96.081 E1.38571
G1 X112.599 Y95.119 E1.40542
G1 X113.908 Y81.774 E1.67221
G1 X114.119 Y74.846 E1.81011
G1 X114.535 Y71.942 E1.86848
G1 X114.637 Y70.637 E1.89452
G1 X114.443 Y69.352 E1.92037
G1 X113.610 Y68.404 E1.94548
G1 X112.550 Y68.025 E1.96788
G1 X111.524 Y68.054 E1.98831
G1 X110.522 Y68.478 E2.00995
G1 X110.046 Y69.352 E2.02975
G1 X110.020 Y70.073 E2.04410
G1 X110.051 Y70.630 E2.05520
G1 X109.680 Y70.726 E2.06282
G1 X109.536 Y70.715 E2.06570
G1 X109.382 Y70.633 E2.06918
G1 X109.140 Y70.401 E2.07584
G1 X108.883 Y70.049 E2.08451
G1 X108.657 Y69.651 E2.09364
G1 X108.505 Y69.330 E2.10069
G1 X108.434 Y69.088 E2.10570
G1 X108.413 Y68.834 E2.11077
G1 X108.450 Y68.462 E2.11822
G1 X108.565 Y67.958 E2.12850
G1 X108.782 Y67.446 E2.13957
G1 X109.121 Y66.978 E2.15107
G1 X109.629 Y66.579 E2.16390
G1 X110.447 Y66.259 E2.18140
G1 X111.530 Y66.022 E2.20346
G1 X114.800 Y65.734 E2.26876
G1 X116.357 Y65.700 E2.29975
G1 X117.802 Y65.700 E2.32850
G1 X118.463 Y65.755 E2.34169
G1 X119.053 Y65.905 E2.35380
G1 X119.594 Y66.187 E2.36593
G1 X120.149 Y66.696 E2.38092
G1 X120.708 Y67.444 E2.39950
G1 X121.215 Y68.380 E2.42069
G1 X121.629 Y69.450 E2.44351
G1 X121.921 Y70.603 E2.46717
G1 X122.090 Y71.847 E2.49214
G1 X122.130 Y73.187 E2.51882
G1 X122.038 Y74.628 E2.54755
G1 X120.660 Y81.611 E2.68916
G1 X120.547 Y82.485 E2.70671
G1 X119.923 Y91.287 E2.88226
G1 X119.666 Y93.037 E2.91746
G1 X119.319 Y94.758 E2.95239
G1 X118.872 Y96.377 E2.98581
G1 X118.325 Y97.824 E3.01657
G1 X117.681 Y99.075 E3.04457
G1 X116.944 Y100.106 E3.06978
G1 X116.122 Y100.902 E3.09254
G1 X115.198 Y101.470 E3.11412
G1 X114.110 Y101.863 E3.13714
G1 X112.809 Y102.103 E3.16346
G1 X111.272 Y102.204 E3.19411
G1 X107.529 Y102.073 E3.26862
G1 X99.628 Y101.082 E3.42706
G1 X97.981 Y100.729 E3.46056
G1 X97.762 Y101.969 E3.48562
G1 X96.932 Y101.823 E3.50240
G1 X96.472 Y99.698 E3.54565
G1 X96.442 Y98.372 E3.57204
G1 X96.493 Y97.881 E3.58186
G1 X95.839 Y97.610 F12000.000
G1 X96.201 Y96.723 F1080.000 E3.60092
G1 X90.122 Y95.651 E3.72374
G1 X90.360 Y94.304 E3.75095
G1 X91.742 Y93.698 E3.78099
G1 X92.272 Y93.791 E3.79169
G1 X92.923 Y94.414 E3.80962
G1 X99.577 Y95.587 E3.94404
G1 X99.427 Y96.438 E3.96123
G1 X108.740 Y97.764 E4.14839
G1 X109.653 Y97.730 E4.16658
G1 X110.272 Y97.553 E4.17936
G1 X110.664 Y97.277 E4.18891
G1 X110.898 Y97.016 E4.19589
G1 X111.152 Y96.786 E4.20270
G1 X111.449 Y96.423 E4.21203
G1 X111.719 Y95.852 E4.22460
G1 X111.930 Y94.999 E4.24208
G1 X113.231 Y81.735 E4.50724
G1 X113.443 Y74.774 E4.64581
G1 X113.860 Y71.867 E4.70424
G1 X113.954 Y70.661 E4.72830
G1 X113.802 Y69.650 E4.74864
G1 X113.216 Y68.984 E4.76629
G1 X112.442 Y68.706 E4.78266
G1 X111.671 Y68.729 E4.79800
G1 X111.005 Y69.011 E4.81239
G1 X110.719 Y69.536 E4.82430
G1 X110.699 Y70.067 E4.83486
G1 X110.724 Y70.514 E4.84377
G1 X110.678 Y70.839 E4.85030
G1 X110.486 Y71.094 E4.85666
G1 X110.150 Y71.305 E4.86455
G1 X109.742 Y71.412 E4.87295
G1 X109.343 Y71.381 E4.88090
G1 X108.980 Y71.188 E4.88909
G1 X108.627 Y70.849 E4.89882
G1 X108.313 Y70.418 E4.90944
G1 X108.054 Y69.964 E4.91984
G1 X107.869 Y69.572 E4.92846
G1 X107.764 Y69.214 E4.93588
G1 X107.731 Y68.829 E4.94356
G1 X107.779 Y68.352 E4.95310
G1 X107.917 Y67.749 E4.96541
G1 X108.187 Y67.110 E4.97921
G1 X108.628 Y66.503 E4.99414
G1 X109.288 Y65.984 E5.01085
G1 X110.250 Y65.607 E5.03140
G1 X111.415 Y65.353 E5.05513
G1 X114.774 Y65.056 E5.12222
G1 X116.349 Y65.021 E5.15357
G1 X117.831 Y65.021 E5.18304
G1 X118.576 Y65.084 E5.19792
G1 X119.296 Y65.267 E5.21270
G1 X119.986 Y65.626 E5.22818
G1 X120.655 Y66.238 E5.24622
G1 X121.282 Y67.077 E5.26706
G1 X121.832 Y68.096 E5.29008
G1 X122.276 Y69.243 E5.31457
G1 X122.588 Y70.474 E5.33983
G1 X122.767 Y71.791 E5.36627
G1 X122.810 Y73.198 E5.39429
G1 X122.714 Y74.700 E5.42422
G1 X121.330 Y81.717 E5.56652
G1 X121.222 Y82.553 E5.58329
G1 X120.597 Y91.374 E5.75923
G1 X120.335 Y93.154 E5.79503
G1 X119.979 Y94.916 E5.83080
G1 X119.517 Y96.588 E5.86530
G1 X118.946 Y98.100 E5.89747
G1 X118.261 Y99.429 E5.92721
G1 X117.460 Y100.550 E5.95463
G1 X116.541 Y101.441 E5.98009
G1 X115.494 Y102.084 E6.00453
G1 X114.288 Y102.520 E6.03005
G1 X112.894 Y102.777 E6.05826
G1 X111.290 Y102.883 E6.09023
G1 X107.477 Y102.750 E6.16614
G1 X99.502 Y101.749 E6.32605
G1 X98.527 Y101.540 E6.34589
G1 X98.313 Y102.755 E6.37045
G1 X91.660 Y101.582 E6.50486
G1 X90.834 Y101.944 E6.52280
G1 X90.304 Y101.851 E6.53350
G1 X89.213 Y100.808 E6.56353
G1 X89.450 Y99.461 E6.59075
G1 X95.975 Y100.611 E6.72257
G1 X95.795 Y99.778 E6.73953
G1 X95.763 Y98.344 E6.76806
G1 X95.828 Y97.715 E6.78066
G1 X96.983 Y97.713 F12000.000
G1 X99.865 Y100.595 F2400.000 E6.86174
G1 X101.024 Y100.786 F12000.000
G1 X97.697 Y97.459 F2400.000 E6.95534
G1 X98.765 Y97.559 F12000.000
G1 X102.163 Y100.957 F2400.000 E7.05095
G1 X103.278 Y101.105 F12000.000
G1 X99.832 Y97.659 F2400.000 E7.14792
G1 X100.950 Y97.809 F12000.000
G1 X104.383 Y101.242 F2400.000 E7.24451
G1 X105.481 Y101.372 F12000.000
G1 X102.088 Y97.979 F2400.000 E7.33997
G1 X103.246 Y98.170 F12000.000
G1 X106.556 Y101.480 F2400.000 E7.43309
G1 X107.624 Y101.580 F12000.000
G1 X104.404 Y98.361 F2400.000 E7.52368
G1 X105.560 Y98.549 F12000.000
G1 X108.657 Y101.646 F2400.000 E7.61082
G1 X109.685 Y101.706 F12000.000
G1 X106.702 Y98.723 F2400.000 E7.69476
G1 X107.800 Y98.853 F12000.000
G1 X110.663 Y101.716 F2400.000 E7.77532
G1 X111.627 Y101.712 F12000.000
G1 X108.827 Y98.913 F2400.000 E7.85409
G1 X109.743 Y98.861 F12000.000
G1 X112.534 Y101.653 F2400.000 E7.93263
G1 X113.390 Y101.541 F12000.000
G1 X110.495 Y98.646 F2400.000 E8.01408
G1 X111.106 Y98.288 F12000.000
G1 X114.197 Y101.379 F2400.000 E8.10106
G1 X114.908 Y101.123 F12000.000
G1 X111.615 Y97.830 F2400.000 E8.19371
G1 X112.092 Y97.340 F12000.000
G1 X115.537 Y100.785 F2400.000 E8.29063
G1 X116.094 Y100.374 F12000.000
G1 X112.493 Y96.773 F2400.000 E8.39195
G1 X112.804 Y96.115 F12000.000
G1 X116.586 Y99.897 F2400.000 E8.49837
G1 X116.996 Y99.340 F12000.000
G1 X112.996 Y95.340 F2400.000 E8.61091
G1 X113.130 Y94.507 F12000.000
G1 X117.381 Y98.758 F2400.000 E8.73051
G1 X117.710 Y98.119 F12000.000
G1 X113.226 Y93.635 F2400.000 E8.85668
G1 X113.285 Y92.727 F12000.000
G1 X118.012 Y97.454 F2400.000 E8.98968
G1 X118.278 Y96.751 F12000.000
G1 X113.346 Y91.819 F2400.000 E9.12846
G1 X113.405 Y90.911 F12000.000
G1 X118.518 Y96.024 F2400.000 E9.27232
G1 X118.727 Y95.266 F12000.000
G1 X113.465 Y90.004 F2400.000 E9.42038
G1 X113.525 Y89.096 F12000.000
G1 X118.918 Y94.490 F2400.000 E9.57214
G1 X119.081 Y93.684 F12000.000
G1 X113.604 Y88.207 F2400.000 E9.72626
G1 X113.689 Y87.324 F12000.000
G1 X119.232 Y92.868 F2400.000 E9.88223
G1 X119.356 Y92.024 F12000.000
G1 X113.787 Y86.455 F2400.000 E10.03892
G1 X113.898 Y85.598 F12000.000
G1 X119.473 Y91.174 F2400.000 E10.19580
G1 X119.570 Y90.302 F12000.000
G1 X114.014 Y84.745 F2400.000 E10.35215
G1 X114.129 Y83.893 F12000.000
G1 X119.661 Y89.425 F2400.000 E10.50780
G1 X119.737 Y88.535 F12000.000
G1 X114.244 Y83.041 F2400.000 E10.66238
G1 X114.344 Y82.174 F12000.000
G1 X119.804 Y87.634 F2400.000 E10.81603
G1 X119.865 Y86.726 F12000.000
G1 X114.400 Y81.262 F2400.000 E10.96977
G1 X114.426 Y80.320 F12000.000
G1 X119.906 Y85.800 F2400.000 E11.12397
G1 X119.947 Y84.873 F12000.000
G1 X114.432 Y79.359 F2400.000 E11.27914
G1 X114.438 Y78.398 F12000.000
G1 X119.988 Y83.947 F2400.000 E11.43528
G1 X120.039 Y83.031 F12000.000
G1 X114.453 Y77.445 F2400.000 E11.59246
G1 X114.481 Y76.504 F12000.000
G1 X120.129 Y82.153 F2400.000 E11.75139
G1 X120.260 Y81.316 F12000.000
G1 X114.535 Y75.591 F2400.000 E11.91248
G1 X114.600 Y74.689 F12000.000
G1 X120.417 Y80.505 F2400.000 E12.07614
G1 X120.595 Y79.717 F12000.000
G1 X114.721 Y73.842 F2400.000 E12.24142
G1 X114.843 Y72.996 F12000.000
G1 X120.775 Y78.927 F2400.000 E12.40833
G1 X120.954 Y78.139 F12000.000
G1 X114.964 Y72.149 F2400.000 E12.57685
G1 X115.054 Y71.272 F12000.000
G1 X121.122 Y77.340 F2400.000 E12.74758
G1 X121.283 Y76.533 F12000.000
G1 X115.113 Y70.364 F2400.000 E12.92118
G1 X114.942 Y69.224 F12000.000
G1 X121.420 Y75.702 F2400.000 E13.10345
G1 X121.545 Y74.860 F12000.000
G1 X113.003 Y66.318 F2400.000 E13.34380
G1 X112.125 Y66.407 F12000.000
G1 X113.483 Y67.765 F2400.000 E13.38200
G1 X112.306 Y67.557 F12000.000
G1 X111.280 Y66.530 F2400.000 E13.41088
G1 X110.486 Y66.704 F12000.000
G1 X111.424 Y67.641 F2400.000 E13.43727
G1 X110.744 Y67.929 F12000.000
G1 X109.786 Y66.971 F2400.000 E13.46423
G1 X109.241 Y67.393 F12000.000
G1 X110.151 Y68.303 F2400.000 E13.48984
G1 X109.809 Y68.930 F12000.000
G1 X108.984 Y68.105 F2400.000 E13.51306
G1 X109.074 Y69.163 F12000.000
G1 X109.562 Y69.650 F2400.000 E13.52678
G1 F600.000 E12.52678
G92 E0
G1 X113.907 Y66.254 F12000.000
G1 F600.000 E1.00000
G1 X121.612 Y73.959 F2400.000 E1.21680
G1 X121.638 Y73.018 F12000.000
G1 X114.830 Y66.210 F2400.000 E1.40836
G1 X115.776 Y66.189 F12000.000
G1 X121.598 Y72.011 F2400.000 E1.57217
G1 X121.441 Y70.885 F12000.000
G1 X116.736 Y66.180 F2400.000 E1.70455
G1 X117.715 Y66.192 F12000.000
G1 X121.054 Y69.530 F2400.000 E1.79848
G1 F600.000 E0.79848
G92 E0
G1 X119.842 Y67.351 F12000.000
G1 F600.000 E1.00000
G1 X119.445 Y66.954 F2400.000 E1.01117
G1 F600.000 E0.01117
G92 E0
G1 X96.933 Y98.631 F12000.000
G1 F600.000 E1.00000
G1 X98.633 Y100.330 F2400.000 E1.04783
G1 X97.401 Y100.066 F12000.000
G1 X97.004 Y99.669 F2400.000 E1.05898
G1 X96.696 Y101.585 F12000.000
G1 X93.440 Y101.068 F2400.000 E1.12456
G1 X92.771 Y100.948 E1.13808
G1 X92.016 Y100.745 E1.15365
G1 X91.774 Y100.769 E1.15848
G1 X91.767 Y100.762 E1.15868
G1 F600.000 E0.15868
G92 E0
G1 X92.739 Y95.280 F12000.000
G1 F600.000 E1.00000
G1 X92.762 Y95.246 F2400.000 E1.00081
G1 X93.071 Y95.316 E1.00712
G1 X93.788 Y95.408 E1.02150
G1 X94.476 Y95.520 E1.03537
G1 X97.003 Y96.037 E1.08670
G1 F600.000 E0.08670
G92 E0
G1 X39.896 Y65.497 F12000.000
G1 F600.000 E1.00000
G1 X38.991 Y65.100 F1080.000 E1.01967
G1 X39.034 Y64.745 E1.02678
G1 X40.450 Y64.495 E1.05539
G1 X40.611 Y64.814 E1.06250
G1 X39.972 Y65.424 E1.08008
G1 F600.000 E0.08008
G92 E0
G1 X45.287 Y63.996 F12000.000
G1 F600.000 E1.00000
G1 X44.503 Y62.089 F1080.000 E1.04102
G1 X44.442 Y61.497 E1.05285
G1 X44.471 Y60.177 E1.07912
G1 X44.936 Y58.044 E1.12255
G1 X45.762 Y57.899 E1.13925
G1 X45.984 Y59.155 E1.16463
G1 X49.431 Y58.515 E1.23438
G1 X55.523 Y57.832 E1.35634
G1 X59.261 Y57.699 E1.43077
G1 X60.796 Y57.799 E1.46137
G1 X62.091 Y58.037 E1.48757
G1 X63.174 Y58.427 E1.51046
G1 X64.092 Y58.991 E1.53191
G1 X64.909 Y59.782 E1.55452
G1 X65.641 Y60.807 E1.57959
G1 X66.282 Y62.051 E1.60744
G1 X66.826 Y63.491 E1.63806
G1 X67.271 Y65.107 E1.67140
G1 X67.916 Y68.684 E1.74373
G1 X68.530 Y77.371 E1.91698
G1 X68.643 Y78.244 E1.93450
G1 X69.799 Y83.684 E2.04515
G1 X70.034 Y85.242 E2.07650
G1 X70.128 Y86.683 E2.10522
G1 X70.089 Y88.022 E2.13188
G1 X69.921 Y89.264 E2.15682
G1 X69.629 Y90.416 E2.18047
G1 X69.215 Y91.484 E2.20325
G1 X68.709 Y92.419 E2.22440
G1 X68.150 Y93.165 E2.24296
G1 X67.594 Y93.673 E2.25793
G1 X67.053 Y93.954 E2.27006
G1 X66.463 Y94.104 E2.28217
G1 X65.802 Y94.159 E2.29537
G1 X61.856 Y94.070 E2.37391
G1 X59.539 Y93.828 E2.42026
G1 X58.458 Y93.588 E2.44228
G1 X57.641 Y93.267 E2.45974
G1 X57.136 Y92.871 E2.47252
G1 X56.799 Y92.406 E2.48394
G1 X56.584 Y91.897 E2.49494
G1 X56.469 Y91.395 E2.50519
G1 X56.431 Y91.024 E2.51261
G1 X56.451 Y90.771 E2.51765
G1 X56.521 Y90.532 E2.52260
G1 X56.669 Y90.214 E2.52959
G1 X56.893 Y89.819 E2.53863
G1 X57.147 Y89.469 E2.54723
G1 X57.386 Y89.239 E2.55381
G1 X57.538 Y89.158 E2.55724
G1 X57.681 Y89.148 E2.56010
G1 X58.051 Y89.244 E2.56770
G1 X58.020 Y89.797 E2.57873
G1 X58.046 Y90.518 E2.59308
G1 X58.523 Y91.391 E2.61288
G1 X59.524 Y91.814 E2.63450
G1 X60.550 Y91.843 E2.65492
G1 X61.610 Y91.463 E2.67732
G1 X62.443 Y90.516 E2.70242
G1 X62.637 Y89.231 E2.72828
G1 X62.535 Y87.926 E2.75431
G1 X62.119 Y85.023 E2.81267
G1 X61.850 Y77.255 E2.96731
G1 X61.062 Y70.744 E3.09779
G1 X60.777 Y66.029 E3.19177
G1 X60.630 Y64.736 E3.21766
G1 X60.389 Y63.773 E3.23741
G1 X60.052 Y63.064 E3.25303
G1 X59.669 Y62.596 E3.26507
G1 X59.401 Y62.352 E3.27228
G1 X59.136 Y62.058 E3.28016
G1 X58.587 Y61.669 E3.29355
G1 X57.777 Y61.434 E3.31033
G1 X56.731 Y61.393 E3.33116
G1 X48.317 Y62.658 E3.50044
G1 X46.629 Y62.816 E3.53416
G1 X46.791 Y63.731 E3.55264
G1 X45.390 Y63.978 E3.58094
G1 F600.000 E2.58094
G92 E0
G1 X39.542 Y59.349 F12000.000
G1 F600.000 E1.00000
G1 X38.126 Y59.599 F1080.000 E1.02861
G1 X37.965 Y59.280 E1.03572
G1 X38.680 Y58.597 E1.05539
