; generated by Slic3r 0.8.3-dev on 2012-06-10 at 00:30:32

; layer_height = 0.2
; perimeters = 1
; solid_layers = 5
; fill_density = 0.05
; nozzle_diameter = 0.5
; filament_diameter = 2.9
; extrusion_multiplier = 1
; perimeter_speed = 90
; infill_speed = 200
; travel_speed = 200
; scale = 1
; single wall width = 0.70mm

;G28 ; home all axes
G90 ; use absolute coordinates
G21 ; set units to millimeters
G92 E0 ; reset extrusion distance
M82 ; use absolute distances for extrusion
G1 Z0.200 F12000.000
G1 X55.852 Y57.411
G1 F1800.000 E1.00000
G1 X60.441 Y53.301 F1080.000 E1.12258
G1 X61.072 Y52.881 E1.13765
G1 X66.201 Y49.931 E1.25538
G1 X66.662 Y49.721 E1.26544
G1 X67.121 Y49.541 E1.27527
G1 X72.742 Y47.721 E1.39280
G1 X73.481 Y47.561 E1.40787
G1 X79.572 Y46.921 E1.52970
G1 X79.822 Y46.911 E1.53468
G1 X80.322 Y46.921 E1.54463
G1 X86.501 Y47.561 E1.66824
G1 X87.242 Y47.721 E1.68331
G1 X92.871 Y49.541 E1.80103
G1 X93.572 Y49.821 E1.81603
G1 X99.131 Y53.011 E1.94356
G1 X99.541 Y53.301 E1.95355
G1 X104.322 Y57.581 E2.08121
G1 X104.822 Y58.141 E2.09614
G1 X108.451 Y63.131 E2.21891
G1 X108.712 Y63.561 E2.22891
G1 X111.332 Y69.411 E2.35644
G1 X111.422 Y69.651 E2.36154
G1 X111.621 Y70.371 E2.37641
G1 X112.852 Y76.161 E2.49418
G1 X112.911 Y76.661 E2.50420
G1 X112.911 Y83.331 E2.63690
G1 X112.852 Y83.831 E2.64692
G1 X111.561 Y89.851 E2.76941
G1 X111.422 Y90.331 E2.77936
G1 X111.332 Y90.571 E2.78446
G1 X108.832 Y96.201 E2.90702
G1 X108.712 Y96.431 E2.91218
G1 X108.451 Y96.861 E2.92218
G1 X104.822 Y101.851 E3.04495
G1 X104.322 Y102.411 E3.05989
G1 X99.541 Y106.691 E3.18754
G1 X99.131 Y106.981 E3.19753
G1 X93.791 Y110.061 E3.32018
G1 X93.572 Y110.171 E3.32507
G1 X92.871 Y110.451 E3.34007
G1 X87.242 Y112.271 E3.45780
G1 X86.501 Y112.431 E3.47286
G1 X80.362 Y113.071 E3.59568
G1 X80.112 Y113.081 E3.60066
G1 X79.612 Y113.071 E3.61061
G1 X73.481 Y112.431 E3.73323
G1 X72.751 Y112.271 E3.74810
G1 X67.121 Y110.451 E3.86582
G1 X66.421 Y110.171 E3.88082
G1 X60.852 Y106.971 E4.00863
G1 X60.431 Y106.681 E4.01878
G1 X55.662 Y102.411 E4.14616
G1 X55.482 Y102.231 E4.15122
G1 X55.151 Y101.841 E4.16139
G1 X51.541 Y96.861 E4.28376
G1 X51.282 Y96.431 E4.29376
G1 X48.651 Y90.571 E4.42155
G1 X48.562 Y90.331 E4.42665
G1 X48.361 Y89.601 E4.44171
G1 X47.142 Y83.831 E4.55905
G1 X47.081 Y83.331 E4.56907
G1 X47.081 Y76.661 E4.70177
G1 X47.142 Y76.171 E4.71160
G1 X48.422 Y70.131 E4.83443
G1 X48.562 Y69.651 E4.84438
G1 X51.282 Y63.561 E4.97708
G1 X51.541 Y63.131 E4.98708
G1 X55.151 Y58.151 E5.10946
G1 X55.482 Y57.761 E5.11962
G1 X55.662 Y57.581 E5.12469
G1 X55.773 Y57.481 E5.12767
G1 F1800.000 E4.12767
G92 E0
G1 X78.899 Y78.484 F12000.000
G1 F1800.000 E1.00000
G1 X80.389 Y78.168 F1080.000 E1.03032
G1 X81.541 Y79.004 E1.05864
G1 X81.801 Y80.226 E1.08350
G1 X81.248 Y81.339 E1.10822
G1 X80.239 Y81.753 E1.12990
G1 X79.542 Y81.679 E1.14386
G1 X78.599 Y81.227 E1.16465
G1 X78.137 Y79.804 E1.19443
G1 X78.846 Y78.575 E1.22266
G1 X79.335 Y79.085 F12000.000
G1 X80.235 Y78.894 F1080.000 E1.24096
G1 X80.932 Y79.400 E1.25808
G1 X81.088 Y80.136 E1.27305
G1 X80.754 Y80.808 E1.28799
G1 X80.140 Y81.060 E1.30118
G1 X79.729 Y81.017 E1.30940
G1 X79.155 Y80.741 E1.32208
G1 X78.876 Y79.882 E1.34006
G1 X79.283 Y79.176 E1.35627
G1 F1800.000 E0.35627
G92 E0
G1 X64.480 Y58.638 F12000.000
G1 F1800.000 E1.00000
G1 X69.260 Y55.878 F1080.000 E1.10982
G1 X74.510 Y54.172 E1.21965
G1 X79.962 Y53.599 E1.32871
G1 X85.491 Y54.173 E1.43930
G1 X90.740 Y55.878 E1.54911
G1 X95.520 Y58.638 E1.65894
G1 X99.622 Y62.332 E1.76877
G1 X102.867 Y66.798 E1.87859
G1 X105.112 Y71.841 E1.98842
G1 X106.260 Y77.240 E2.09824
G1 X106.260 Y82.760 E2.20807
G1 X105.112 Y88.159 E2.31790
G1 X102.867 Y93.202 E2.42772
G1 X99.622 Y97.668 E2.53755
G1 X95.520 Y101.362 E2.64738
G1 X90.740 Y104.122 E2.75720
G1 X85.490 Y105.828 E2.86703
G1 X80.000 Y106.405 E2.97685
G1 X74.510 Y105.828 E3.08668
G1 X69.261 Y104.122 E3.19650
G1 X64.469 Y101.352 E3.30661
G1 X60.378 Y97.668 E3.41615
G1 X57.133 Y93.202 E3.52598
G1 X54.888 Y88.159 E3.63581
G1 X53.740 Y82.760 E3.74563
G1 X53.740 Y77.240 E3.85546
G1 X54.888 Y71.841 E3.96529
G1 X57.133 Y66.798 E4.07511
G1 X60.378 Y62.332 E4.18494
G1 X64.402 Y58.708 E4.29268
G1 X64.079 Y58.086 F12000.000
G1 X68.983 Y55.255 F1080.000 E4.40534
G1 X74.368 Y53.505 E4.51800
G1 X79.961 Y52.917 E4.62989
G1 X85.632 Y53.505 E4.74332
G1 X91.017 Y55.255 E4.85598
G1 X95.921 Y58.086 E4.96864
G1 X100.129 Y61.875 E5.08131
G1 X103.458 Y66.457 E5.19397
G1 X105.761 Y71.630 E5.30663
G1 X106.939 Y77.169 E5.41930
G1 X106.939 Y82.831 E5.53196
G1 X105.761 Y88.370 E5.64463
G1 X103.458 Y93.543 E5.75729
G1 X100.129 Y98.125 E5.86995
G1 X95.921 Y101.914 E5.98262
G1 X91.017 Y104.745 E6.09528
G1 X85.632 Y106.495 E6.20795
G1 X80.000 Y107.087 E6.32061
G1 X74.368 Y106.495 E6.43328
G1 X68.983 Y104.745 E6.54594
G1 X64.068 Y101.904 E6.65888
G1 X59.871 Y98.125 E6.77126
G1 X56.542 Y93.543 E6.88393
G1 X54.239 Y88.370 E6.99659
G1 X53.062 Y82.831 E7.10925
G1 X53.062 Y77.169 E7.22192
G1 X54.239 Y71.630 E7.33458
G1 X56.542 Y66.457 E7.44725
G1 X59.871 Y61.875 E7.55991
G1 X64.001 Y58.156 E7.67049
G1 F1800.000 E6.67049
G92 E0
G1 X77.916 Y79.370 F12000.000
G1 F1800.000 E1.00000
G1 X60.923 Y62.377 F2400.000 E1.47813
G1 X61.433 Y61.918 E1.49178
G1 X78.271 Y78.756 E1.96554
G1 X78.626 Y78.142 E1.97965
G1 X61.943 Y61.459 E2.44905
G1 X62.453 Y61.000 E2.46270
G1 X79.381 Y77.929 E2.93901
G1 X80.180 Y77.759 E2.95526
G1 X62.962 Y60.541 E3.43972
G1 X63.472 Y60.082 E3.45336
G1 X81.794 Y78.404 E3.96889
G1 X81.993 Y78.603 F12000.000
G1 X99.939 Y96.549 F2400.000 E4.47383
G1 X99.531 Y97.110 F12000.000
G1 X82.255 Y79.833 F2400.000 E4.95994
G1 X82.068 Y80.616 F12000.000
G1 X99.076 Y97.624 F2400.000 E5.43849
G1 X98.566 Y98.083 F12000.000
G1 X81.747 Y81.263 F2400.000 E5.91174
G1 X81.291 Y81.776 F12000.000
G1 X98.057 Y98.541 F2400.000 E6.38348
G1 X97.547 Y99.000 F12000.000
G1 X80.604 Y82.057 F2400.000 E6.86021
G1 X79.788 Y82.211 F12000.000
G1 X97.037 Y99.459 F2400.000 E7.34554
G1 X96.527 Y99.918 F12000.000
G1 X78.382 Y81.773 F2400.000 E7.85610
G1 X78.107 Y81.498 F12000.000
G1 X60.061 Y63.452 F2400.000 E8.36388
G1 X60.468 Y62.891 E8.37768
G1 X77.641 Y80.064 E8.86087
G1 F1800.000 E7.86087
G92 E0
G1 X58.112 Y93.471 F12000.000
G1 F1800.000 E1.00000
G1 X66.424 Y101.782 F2400.000 E1.23386
G1 X68.720 Y103.109 E1.28662
G1 X56.925 Y91.315 E1.61847
G1 X56.148 Y89.569 E1.65650
G1 X70.536 Y103.957 E2.06132
G1 X71.971 Y104.423 E2.09134
G1 X55.371 Y87.823 E2.55842
G1 X55.088 Y86.571 E2.58395
G1 X73.406 Y104.889 E3.09935
G1 X74.841 Y105.355 E3.12937
G1 X54.826 Y85.341 E3.69252
G1 X54.565 Y84.111 E3.71754
G1 X75.925 Y105.471 E4.31856
G1 X77.008 Y105.585 E4.34022
G1 X54.303 Y82.881 E4.97905
G1 X54.220 Y81.829 E5.00004
G1 X78.090 Y105.699 E5.67167
G1 X79.173 Y105.813 E5.69332
G1 X54.220 Y80.860 E6.39541
G1 X54.220 Y79.892 E6.41468
G1 X80.244 Y105.916 E7.14692
G1 X81.121 Y105.823 E7.16446
G1 X54.220 Y78.923 E7.92136
G1 X54.220 Y77.954 E7.94063
G1 X81.998 Y105.731 E8.72220
G1 X82.874 Y105.639 E8.73973
G1 X54.243 Y77.008 E9.54533
G1 X54.413 Y76.209 E9.56158
G1 X83.751 Y105.547 E10.38707
G1 X84.627 Y105.455 E10.40461
G1 X54.583 Y75.410 E11.24998
G1 X54.752 Y74.611 E11.26623
G1 X85.504 Y105.363 E12.13148
G1 X86.242 Y105.132 E12.14687
G1 X54.922 Y73.812 E13.02812
G1 X55.092 Y73.013 E13.04437
G1 X86.973 Y104.895 E13.94141
G1 X87.704 Y104.657 E13.95671
G1 X55.262 Y72.214 E14.86954
G1 X55.502 Y71.486 E14.88480
G1 X88.436 Y104.419 E15.81145
G1 X89.167 Y104.182 E15.82675
G1 X55.801 Y70.816 E16.76557
G1 X56.099 Y70.145 E16.78017
G1 X89.898 Y103.944 E17.73117
G1 X90.629 Y103.706 F12000.000
G1 X56.398 Y69.475 F2400.000 E18.69434
G1 X56.696 Y68.805 E18.70894
G1 X91.248 Y103.357 E19.68114
G1 X91.863 Y103.002 E19.69525
G1 X56.995 Y68.134 E20.67633
G1 X57.293 Y67.464 E20.69093
G1 X92.477 Y102.648 E21.68089
G1 X93.091 Y102.293 E21.69500
G1 X57.615 Y66.818 E22.69317
G1 X58.023 Y66.256 E22.70697
G1 X93.705 Y101.939 E23.71096
G1 X94.319 Y101.584 E23.72507
G1 X58.431 Y65.695 E24.73486
G1 X58.838 Y65.134 E24.74866
G1 X94.933 Y101.229 E25.76427
G1 X95.508 Y100.836 E25.77813
G1 X59.246 Y64.573 E26.79845
G1 X59.654 Y64.012 E26.81225
G1 X96.018 Y100.377 E27.83544
G1 F1800.000 E26.83544
G92 E0
G1 X100.346 Y95.988 F12000.000
G1 F1800.000 E1.00000
G1 X63.982 Y59.623 F2400.000 E2.02319
G1 X64.492 Y59.164 E2.03684
G1 X100.754 Y95.427 E3.05715
G1 X101.162 Y94.866 E3.07095
G1 X65.067 Y58.771 E4.08656
G1 X65.681 Y58.416 E4.10066
G1 X101.569 Y94.305 E5.11046
G1 X101.977 Y93.743 E5.12426
G1 X66.295 Y58.061 E6.12824
G1 X66.909 Y57.707 E6.14235
G1 X102.385 Y93.182 E7.14053
G1 X102.707 Y92.536 E7.15490
G1 X67.523 Y57.352 E8.14486
G1 X68.137 Y56.998 E8.15897
G1 X103.006 Y91.866 E9.14005
G1 X103.304 Y91.195 E9.15465
G1 X68.752 Y56.643 E10.12685
G1 X69.371 Y56.293 E10.14100
G1 X103.602 Y90.525 E11.10417
G1 X103.901 Y89.855 E11.11877
G1 X70.102 Y56.056 E12.06977
G1 X70.833 Y55.818 E12.08506
G1 X104.199 Y89.184 E13.02389
G1 X104.498 Y88.514 E13.03848
G1 X71.564 Y55.581 E13.96513
G1 X72.295 Y55.343 E13.98043
G1 X104.738 Y87.786 E14.89326
G1 X104.908 Y86.987 E14.90951
G1 X73.027 Y55.106 E15.80656
G1 X73.758 Y54.868 E15.82185
G1 X105.078 Y86.188 E16.70310
G1 X105.248 Y85.389 E16.71935
G1 X74.496 Y54.637 E17.58460
G1 X75.372 Y54.545 E17.60214
G1 X105.417 Y84.590 E18.44751
G1 X105.587 Y83.791 E18.46376
G1 X76.249 Y54.453 E19.28924
G1 X77.126 Y54.361 E19.30678
G1 X105.757 Y82.992 E20.11238
G1 X105.779 Y82.046 E20.13121
G1 X78.002 Y54.269 E20.91278
G1 X78.879 Y54.177 E20.93031
G1 X105.779 Y81.077 E21.68721
G1 X105.779 Y80.108 E21.70649
G1 X79.755 Y54.085 E22.43872
G1 X80.834 Y54.195 E22.46029
G1 X105.779 Y79.140 E23.16218
G1 X105.779 Y78.171 E23.18145
G1 X81.915 Y54.307 E23.85292
G1 X82.996 Y54.419 E23.87454
G1 X105.697 Y77.119 E24.51327
G1 X105.435 Y75.889 E24.53829
G1 X84.077 Y54.531 E25.13925
G1 X85.159 Y54.645 E25.16091
G1 X105.174 Y74.659 E25.72405
G1 X104.912 Y73.429 E25.74907
G1 X86.594 Y55.111 E26.26448
G1 X88.029 Y55.577 E26.29450
G1 X104.629 Y72.177 E26.76157
G1 X103.852 Y70.431 E26.79959
G1 X89.464 Y56.044 E27.20442
G1 X91.279 Y56.889 E27.24424
G1 X103.074 Y68.685 E27.57614
G1 X101.887 Y66.529 E27.62510
G1 X93.571 Y58.212 E27.85911
G1 F1800.000 E26.85911
G92 E0
G1 X98.917 Y62.590 F12000.000
G1 F1800.000 E1.00000
G1 X99.314 Y62.987 F2400.000 E1.01116
G1 F1800.000 E0.01116
G92 E0
G1 X61.084 Y97.411 F12000.000
G1 F1800.000 E1.00000
G1 X60.686 Y97.013 F2400.000 E1.01119
G1 F1800.000 E0.01119
G92 E0
G1 Z0.400 F12000.000
G1 X78.599 Y81.229
G1 F1800.000 E1.00000
G1 X78.154 Y79.859 F5400.000 E1.02865
G1 X78.755 Y78.658 E1.05538
G1 X80.028 Y78.139 E1.08272
G1 X81.392 Y78.746 E1.11243
G1 X81.846 Y80.141 E1.14161
G1 X81.245 Y81.342 E1.16834
G1 X80.238 Y81.753 E1.18997
G1 X79.543 Y81.680 E1.20387
G1 X78.694 Y81.274 E1.22259
G1 X79.155 Y80.742 F12000.000
G1 X78.886 Y79.914 F5400.000 E1.23991
G1 X79.248 Y79.190 E1.25602
G1 X80.017 Y78.876 E1.27253
G1 X80.840 Y79.243 E1.29048
G1 X81.114 Y80.086 E1.30811
G1 X80.752 Y80.810 E1.32422
G1 X80.139 Y81.060 E1.33739
G1 X79.730 Y81.017 E1.34557
G1 X79.249 Y80.787 E1.35617
G1 F1800.000 E0.35617
G92 E0
G1 X60.378 Y97.668 F12000.000
G1 F1800.000 E1.00000
G1 X57.133 Y93.202 F5400.000 E1.10983
G1 X54.888 Y88.159 E1.21965
G1 X53.740 Y82.760 E1.32948
G1 X53.740 Y77.240 E1.43930
G1 X54.888 Y71.841 E1.54913
G1 X57.133 Y66.798 E1.65896
G1 X60.378 Y62.332 E1.76878
G1 X64.480 Y58.638 E1.87861
G1 X69.260 Y55.878 E1.98843
G1 X74.510 Y54.172 E2.09826
G1 X80.000 Y53.595 E2.20809
G1 X85.490 Y54.172 E2.31791
G1 X90.740 Y55.878 E2.42774
G1 X95.520 Y58.638 E2.53757
G1 X99.622 Y62.332 E2.64739
G1 X102.867 Y66.798 E2.75722
G1 X105.112 Y71.841 E2.86705
G1 X106.260 Y77.240 E2.97687
G1 X106.260 Y82.760 E3.08670
G1 X105.112 Y88.159 E3.19652
G1 X102.867 Y93.202 E3.30635
G1 X99.622 Y97.668 E3.41618
G1 X95.520 Y101.362 E3.52600
G1 X90.740 Y104.122 E3.63583
G1 X85.490 Y105.828 E3.74566
G1 X80.000 Y106.405 E3.85548
G1 X74.510 Y105.828 E3.96531
G1 X69.260 Y104.122 E4.07514
G1 X64.480 Y101.362 E4.18496
G1 X60.456 Y97.738 E4.29270
G1 X59.871 Y98.125 F12000.000
G1 X56.542 Y93.543 F5400.000 E4.40536
G1 X54.239 Y88.370 E4.51803
G1 X53.062 Y82.831 E4.63069
G1 X53.062 Y77.169 E4.74335
G1 X54.239 Y71.630 E4.85602
G1 X56.542 Y66.457 E4.96868
G1 X59.871 Y61.875 E5.08135
G1 X64.079 Y58.086 E5.19401
G1 X68.983 Y55.255 E5.30667
G1 X74.368 Y53.505 E5.41934
G1 X80.000 Y52.913 E5.53200
G1 X85.632 Y53.505 E5.64467
G1 X91.017 Y55.255 E5.75733
G1 X95.921 Y58.086 E5.86999
G1 X100.129 Y61.875 E5.98266
G1 X103.458 Y66.457 E6.09532
G1 X105.761 Y71.630 E6.20799
G1 X106.939 Y77.169 E6.32065
G1 X106.939 Y82.831 E6.43332
G1 X105.761 Y88.370 E6.54598
G1 X103.458 Y93.543 E6.65864
G1 X100.129 Y98.125 E6.77131
G1 X95.921 Y101.914 E6.88397
G1 X91.017 Y104.745 E6.99664
G1 X85.632 Y106.495 E7.10930
G1 X80.000 Y107.087 E7.22196
G1 X74.368 Y106.495 E7.33463
G1 X68.983 Y104.745 E7.44729
G1 X64.079 Y101.914 E7.55996
G1 X59.949 Y98.195 E7.67053
G1 X60.924 Y97.623 F12000.000
G1 X77.945 Y80.602 F12000.000 E8.14945
G1 X78.183 Y81.333 F12000.000
G1 X61.434 Y98.082 F12000.000 E8.62072
G1 X61.943 Y98.541 F12000.000
G1 X78.733 Y81.752 F12000.000 E9.09312
G1 X79.388 Y82.065 F12000.000
G1 X62.453 Y99.000 F12000.000 E9.56963
G1 X62.963 Y99.459 F12000.000
G1 X80.209 Y82.213 F12000.000 E10.05488
G1 X81.563 Y81.828 F12000.000
G1 X63.473 Y99.918 F12000.000 E10.56388
G1 X63.982 Y100.377 E10.57753
G1 X100.347 Y64.013 E11.60072
G1 X100.755 Y64.574 E11.61451
G1 X64.492 Y100.836 E12.63484
G1 X65.067 Y101.230 E12.64870
G1 X101.162 Y65.135 E13.66431
G1 X101.570 Y65.696 E13.67810
G1 X65.681 Y101.585 E14.68791
G1 X66.295 Y101.939 E14.70201
G1 X101.977 Y66.257 E15.70600
G1 X102.386 Y66.818 E15.71980
G1 X66.910 Y102.294 E16.71798
G1 X67.524 Y102.648 E16.73209
G1 X102.708 Y67.464 E17.72206
G1 X103.006 Y68.135 E17.73666
G1 X68.138 Y103.003 E18.71775
G1 X68.752 Y103.358 E18.73186
G1 X103.305 Y68.805 E19.70406
G1 X103.603 Y69.475 E19.71866
G1 X69.371 Y103.707 E20.68184
G1 X70.102 Y103.945 E20.69714
G1 X103.902 Y70.146 E21.64814
G1 X104.199 Y70.815 F12000.000
G1 X70.833 Y104.182 F12000.000 E22.58697
G1 X71.564 Y104.419 E22.60227
G1 X104.498 Y71.486 E23.52892
G1 X104.738 Y72.214 E23.54418
G1 X72.295 Y104.657 E24.45702
G1 X73.026 Y104.894 E24.47231
G1 X104.908 Y73.013 E25.36936
G1 X105.077 Y73.812 E25.38561
G1 X73.758 Y105.132 E26.26686
G1 X74.496 Y105.362 E26.28224
G1 X105.247 Y74.611 E27.14750
G1 X105.417 Y75.410 E27.16375
G1 X75.372 Y105.455 E28.00911
G1 X76.249 Y105.547 E28.02665
G1 X105.587 Y76.208 E28.85214
G1 X105.757 Y77.007 E28.86840
G1 X77.125 Y105.639 E29.67400
G1 X78.002 Y105.731 E29.69154
G1 X105.779 Y77.954 E30.47309
G1 X105.779 Y78.923 E30.49237
G1 X78.879 Y105.823 E31.24926
G1 X79.755 Y105.915 E31.26679
G1 X105.780 Y79.891 E31.99904
G1 X105.780 Y80.860 E32.01831
G1 X80.827 Y105.812 E32.72041
G1 X81.909 Y105.699 E32.74207
G1 X105.780 Y81.828 E33.41370
G1 X105.696 Y82.881 E33.43470
G1 X82.992 Y105.585 E34.07354
G1 X84.074 Y105.471 E34.09519
G1 X105.435 Y84.110 E34.69622
G1 X105.174 Y85.341 E34.72125
G1 X85.159 Y105.355 E35.28440
G1 X86.594 Y104.889 E35.31442
G1 X104.912 Y86.571 E35.82983
G1 X104.629 Y87.823 E35.85536
G1 X88.029 Y104.423 E36.32243
G1 X89.464 Y103.956 E36.35245
G1 X103.852 Y89.568 E36.75728
G1 X103.074 Y91.315 E36.79532
G1 X91.278 Y103.111 E37.12722
G1 X93.570 Y101.788 E37.17987
G1 X101.888 Y93.470 E37.41391
G1 F1800.000 E36.41391
G92 E0
G1 X99.314 Y97.013 F12000.000
G1 F1800.000 E1.00000
G1 X98.916 Y97.411 F12000.000 E1.01120
G1 F1800.000 E0.01120
G92 E0
G1 X81.760 Y81.631 F12000.000
G1 F1800.000 E1.00000
G1 X99.940 Y63.451 F12000.000 E1.51152
G1 X99.532 Y62.891 E1.52532
G1 X82.293 Y80.129 E2.01036
G1 X82.055 Y79.398 E2.02565
G1 X99.076 Y62.377 E2.50457
G1 X98.566 Y61.918 E2.51821
G1 X81.818 Y78.667 E2.98947
G1 X81.278 Y78.238 F12000.000
G1 X98.057 Y61.459 F12000.000 E3.46160
G1 X97.547 Y61.000 E3.47524
G1 X80.607 Y77.940 E3.95189
G1 X79.937 Y77.642 E3.96649
G1 X97.038 Y60.541 E4.44765
G1 X96.528 Y60.082 E4.46129
G1 X78.437 Y78.173 E4.97031
G1 X78.241 Y78.369 F12000.000
G1 X60.061 Y96.549 F12000.000 E5.48183
G1 X59.653 Y95.988 E5.49562
