; generated by Slic3r 0.8.3-dev on 2012-06-10 at 00:22:21

; layer_height = 0.2
; perimeters = 1
; solid_layers = 5
; fill_density = 0.05
; nozzle_diameter = 0.5
; filament_diameter = 2.9
; extrusion_multiplier = 1
; perimeter_speed = 90
; infill_speed = 200
; travel_speed = 200
; scale = 1
; single wall width = 0.70mm

;G28 ; home all axes
G90 ; use absolute coordinates
G21 ; set units to millimeters
G92 E0 ; reset extrusion distance
M82 ; use absolute distances for extrusion
G1 Z0.200 F12000.000
G1 X55.724 Y57.302
G1 F1800.000 E1.00000
G1 X59.954 Y53.492 F1080.000 E1.11326
G1 X60.344 Y53.172 E1.12330
G1 X60.974 Y52.752 E1.13837
G1 X66.134 Y49.782 E1.25682
G1 X66.594 Y49.572 E1.26688
G1 X72.724 Y47.562 E1.39523
G1 X73.454 Y47.402 E1.41010
G1 X79.614 Y46.752 E1.53334
G1 X79.864 Y46.742 E1.53832
G1 X80.374 Y46.752 E1.54847
G1 X86.544 Y47.402 E1.67190
G1 X87.274 Y47.562 E1.68677
G1 X93.234 Y49.502 E1.81147
G1 X94.074 Y49.902 E1.82998
G1 X99.224 Y52.882 E1.94837
G1 X99.644 Y53.172 E1.95852
G1 X104.444 Y57.472 E2.08674
G1 X104.944 Y58.032 E2.10167
G1 X108.594 Y63.052 E2.22516
G1 X108.854 Y63.482 E2.23516
G1 X111.494 Y69.362 E2.36340
G1 X111.584 Y69.602 E2.36849
G1 X111.784 Y70.332 E2.38355
G1 X113.014 Y76.142 E2.50171
G1 X113.074 Y76.642 E2.51173
G1 X113.074 Y83.342 E2.64503
G1 X113.014 Y83.842 E2.65505
G1 X111.724 Y89.902 E2.77832
G1 X111.584 Y90.382 E2.78827
G1 X108.854 Y96.512 E2.92178
G1 X108.594 Y96.942 E2.93178
G1 X104.944 Y101.962 E3.05526
G1 X104.444 Y102.522 E3.07020
G1 X100.034 Y106.502 E3.18839
G1 X99.644 Y106.822 E3.19843
G1 X99.014 Y107.242 E3.21349
G1 X93.854 Y110.212 E3.33194
G1 X93.404 Y110.422 E3.34182
G1 X87.284 Y112.432 E3.46999
G1 X86.544 Y112.592 E3.48505
G1 X80.534 Y113.222 E3.60528
G1 X80.074 Y113.242 E3.61444
G1 X79.604 Y113.232 E3.62379
G1 X73.464 Y112.592 E3.74661
G1 X72.714 Y112.432 E3.76187
G1 X66.684 Y110.462 E3.88808
G1 X66.424 Y110.352 E3.89370
G1 X60.764 Y107.112 E4.02346
G1 X60.344 Y106.822 E4.03361
G1 X55.544 Y102.522 E4.16183
G1 X55.044 Y101.962 E4.17676
G1 X51.394 Y96.942 E4.30025
G1 X51.134 Y96.512 E4.31025
G1 X48.494 Y90.622 E4.43867
G1 X48.404 Y90.382 E4.44377
G1 X48.204 Y89.652 E4.45883
G1 X46.974 Y83.842 E4.57698
G1 X46.914 Y83.342 E4.58700
G1 X46.914 Y76.642 E4.72031
G1 X46.974 Y76.142 E4.73032
G1 X48.264 Y70.082 E4.85359
G1 X48.404 Y69.602 E4.86354
G1 X51.134 Y63.482 E4.99687
G1 X51.394 Y63.052 E5.00687
G1 X55.044 Y58.032 E5.13036
G1 X55.544 Y57.472 E5.14529
G1 X55.647 Y57.374 E5.14813
G1 F1800.000 E4.14813
G92 E0
G1 X78.902 Y78.489 F12000.000
G1 F1800.000 E1.00000
G1 X80.388 Y78.173 F1080.000 E1.03022
G1 X81.535 Y79.007 E1.05842
G1 X81.786 Y80.188 E1.08245
G1 X81.294 Y81.291 E1.10648
G1 X80.268 Y81.748 E1.12883
G1 X79.565 Y81.674 E1.14289
G1 X78.612 Y81.249 E1.16365
G1 X78.143 Y79.805 E1.19386
G1 X78.850 Y78.580 E1.22199
G1 X79.339 Y79.090 F12000.000
G1 X80.234 Y78.900 F1080.000 E1.24020
G1 X80.925 Y79.402 E1.25720
G1 X81.076 Y80.113 E1.27166
G1 X80.780 Y80.777 E1.28612
G1 X80.158 Y81.054 E1.29967
G1 X79.743 Y81.010 E1.30798
G1 X79.164 Y80.752 E1.32058
G1 X78.882 Y79.882 E1.33878
G1 X79.287 Y79.181 E1.35489
G1 F1800.000 E0.35489
G92 E0
G1 X64.384 Y58.506 F12000.000
G1 F1800.000 E1.00000
G1 X69.194 Y55.729 F1080.000 E1.11051
G1 X74.476 Y54.013 E1.22101
G1 X80.000 Y53.432 E1.33152
G1 X85.524 Y54.013 E1.44202
G1 X90.806 Y55.729 E1.55253
G1 X95.616 Y58.506 E1.66303
G1 X99.744 Y62.223 E1.77354
G1 X103.008 Y66.716 E1.88404
G1 X105.268 Y71.790 E1.99455
G1 X106.422 Y77.223 E2.10505
G1 X106.422 Y82.777 E2.21556
G1 X105.268 Y88.210 E2.32606
G1 X103.008 Y93.284 E2.43657
G1 X99.744 Y97.777 E2.54707
G1 X95.616 Y101.494 E2.65758
G1 X90.806 Y104.271 E2.76808
G1 X85.524 Y105.987 E2.87859
G1 X80.000 Y106.568 E2.98910
G1 X74.476 Y105.987 E3.09960
G1 X69.194 Y104.271 E3.21011
G1 X64.384 Y101.494 E3.32061
G1 X60.256 Y97.777 E3.43112
G1 X56.992 Y93.284 E3.54162
G1 X54.732 Y88.210 E3.65213
G1 X53.578 Y82.777 E3.76263
G1 X53.578 Y77.223 E3.87314
G1 X54.732 Y71.790 E3.98364
G1 X56.992 Y66.716 E4.09415
G1 X60.256 Y62.223 E4.20465
G1 X64.306 Y58.576 E4.31307
G1 X63.983 Y57.954 F12000.000
G1 X68.916 Y55.106 F1080.000 E4.42641
G1 X74.334 Y53.345 E4.53976
G1 X80.000 Y52.750 E4.65310
G1 X85.666 Y53.345 E4.76644
G1 X91.084 Y55.106 E4.87979
G1 X96.017 Y57.954 E4.99313
G1 X100.251 Y61.766 E5.10647
G1 X103.599 Y66.375 E5.21982
G1 X105.916 Y71.579 E5.33316
G1 X107.101 Y77.152 E5.44650
G1 X107.101 Y82.848 E5.55985
G1 X105.916 Y88.421 E5.67319
G1 X103.599 Y93.625 E5.78653
G1 X100.251 Y98.234 E5.89987
G1 X96.017 Y102.046 E6.01322
G1 X91.084 Y104.894 E6.12656
G1 X85.666 Y106.655 E6.23990
G1 X80.000 Y107.250 E6.35325
G1 X74.334 Y106.655 E6.46659
G1 X69.093 Y104.952 E6.57624
G1 X69.093 Y104.952 E6.57624
G1 X68.916 Y104.894 E6.57993
G1 X63.983 Y102.046 E6.69328
G1 X59.749 Y98.234 E6.80662
G1 X56.401 Y93.625 E6.91996
G1 X54.084 Y88.421 E7.03331
G1 X52.899 Y82.848 E7.14665
G1 X52.899 Y77.152 E7.25999
G1 X54.084 Y71.579 E7.37334
G1 X56.401 Y66.375 E7.48668
G1 X59.749 Y61.766 E7.60002
G1 X63.905 Y58.024 E7.71128
G1 X64.616 Y58.843 F12000.000
G1 X101.058 Y95.285 F2400.000 E8.73664
G1 X101.463 Y94.728 F12000.000
G1 X65.226 Y58.491 F2400.000 E9.75624
G1 X65.835 Y58.139 F12000.000
G1 X101.867 Y94.171 F2400.000 E10.77006
G1 X102.272 Y93.614 F12000.000
G1 X66.445 Y57.787 F2400.000 E11.77812
G1 X67.056 Y57.435 F12000.000
G1 X102.661 Y93.040 F2400.000 E12.77994
G1 X102.957 Y92.374 F12000.000
G1 X67.665 Y57.083 F2400.000 E13.77294
G1 X68.275 Y56.731 F12000.000
G1 X103.253 Y91.709 F2400.000 E14.75712
G1 X103.549 Y91.043 F12000.000
G1 X68.885 Y56.379 F2400.000 E15.73248
G1 X69.537 Y56.068 F12000.000
G1 X103.846 Y90.377 F2400.000 E16.69783
G1 X104.142 Y89.712 F12000.000
G1 X70.263 Y55.833 F2400.000 E17.65108
G1 X70.989 Y55.597 F12000.000
G1 X104.439 Y89.046 F2400.000 E18.59225
G1 X104.735 Y88.380 F12000.000
G1 X71.716 Y55.360 F2400.000 E19.52132
G1 X72.442 Y55.125 F12000.000
G1 X104.939 Y87.622 F2400.000 E20.43570
G1 X105.108 Y86.829 F12000.000
G1 X73.168 Y54.889 F2400.000 E21.33439
G1 X73.894 Y54.653 F12000.000
G1 X105.276 Y86.036 F2400.000 E22.21739
G1 X105.445 Y85.242 F12000.000
G1 X74.660 Y54.457 F2400.000 E23.08359
G1 X75.530 Y54.365 F12000.000
G1 X105.614 Y84.449 F2400.000 E23.93005
G1 X105.782 Y83.655 F12000.000
G1 X76.401 Y54.274 F2400.000 E24.75675
G1 X77.271 Y54.183 F12000.000
G1 X105.942 Y82.853 F2400.000 E25.56345
G1 X105.942 Y81.891 F12000.000
G1 X78.142 Y54.091 F2400.000 E26.34566
G1 X79.012 Y53.999 F12000.000
G1 X105.942 Y80.929 F2400.000 E27.10337
G1 X105.942 Y79.967 F12000.000
G1 X79.902 Y53.927 F2400.000 E27.83606
G1 X80.977 Y54.040 F12000.000
G1 X105.942 Y79.005 F2400.000 E28.53849
G1 X105.942 Y78.043 F12000.000
G1 X82.052 Y54.153 F2400.000 E29.21068
G1 X83.127 Y54.266 F12000.000
G1 X105.831 Y76.970 F2400.000 E29.84950
G1 X105.571 Y75.748 F12000.000
G1 X84.202 Y54.379 F2400.000 E30.45075
G1 X85.308 Y54.522 F12000.000
G1 X105.312 Y74.526 F2400.000 E31.01360
G1 X105.052 Y73.304 F12000.000
G1 X86.733 Y54.985 F2400.000 E31.52905
G1 X88.158 Y55.448 F12000.000
G1 X104.743 Y72.034 F2400.000 E31.99572
G1 X103.971 Y70.300 F12000.000
G1 X89.582 Y55.911 F2400.000 E32.40057
G1 F1800.000 E31.40057
G92 E0
G1 X91.413 Y56.778 F12000.000
G1 F1800.000 E1.00000
G1 X103.199 Y68.565 F2400.000 E1.33165
G1 F1800.000 E0.33165
G92 E0
G1 X101.991 Y66.395 F12000.000
G1 F1800.000 E1.00000
G1 X93.689 Y58.093 F2400.000 E1.23361
G1 F1800.000 E0.23361
G92 E0
G1 X99.038 Y62.481 F12000.000
G1 F1800.000 E1.00000
G1 X99.435 Y62.877 F2400.000 E1.01116
G1 F1800.000 E0.01116
G92 E0
G1 X82.121 Y79.235 F12000.000
G1 F1800.000 E1.00000
G1 X99.843 Y96.957 F2400.000 E1.49865
G1 X100.248 Y96.400 F12000.000
G1 X63.598 Y59.750 F2400.000 E2.52985
G1 X63.092 Y60.206 F12000.000
G1 X80.568 Y77.682 F2400.000 E3.02157
G1 X79.775 Y77.850 F12000.000
G1 X62.586 Y60.661 F2400.000 E3.50521
G1 X62.079 Y61.118 F12000.000
G1 X78.981 Y78.019 F2400.000 E3.98077
G1 X78.453 Y78.453 F12000.000
G1 X61.573 Y61.573 F2400.000 E4.45570
G1 X61.067 Y62.029 F12000.000
G1 X78.101 Y79.062 F2400.000 E4.93496
G1 X77.749 Y79.672 F12000.000
G1 X60.562 Y62.485 F2400.000 E5.41854
G1 X60.157 Y63.043 F12000.000
G1 X77.873 Y80.760 F2400.000 E5.91703
G1 X79.260 Y82.147 F12000.000
G1 X96.908 Y99.794 F2400.000 E6.41357
G1 X96.402 Y100.250 F12000.000
G1 X59.752 Y63.600 F2400.000 E7.44478
G1 X59.348 Y64.157 F12000.000
G1 X95.896 Y100.705 F2400.000 E8.47314
G1 X95.384 Y101.157 F12000.000
G1 X58.942 Y64.715 F2400.000 E9.49850
G1 X58.537 Y65.272 F12000.000
G1 X94.774 Y101.509 F2400.000 E10.51810
G1 X94.165 Y101.861 F12000.000
G1 X58.133 Y65.829 F2400.000 E11.53192
G1 X57.728 Y66.386 F12000.000
G1 X93.555 Y102.213 F2400.000 E12.53998
G1 X92.944 Y102.565 F12000.000
G1 X57.339 Y66.960 F2400.000 E13.54180
G1 X57.043 Y67.626 F12000.000
G1 X92.335 Y102.917 F2400.000 E14.53480
G1 X91.725 Y103.269 F12000.000
G1 X56.747 Y68.291 F2400.000 E15.51898
G1 X56.451 Y68.957 F12000.000
G1 X91.115 Y103.621 F2400.000 E16.49434
G1 X90.463 Y103.932 F12000.000
G1 X56.154 Y69.623 F2400.000 E17.45969
G1 F1800.000 E16.45969
G92 E0
G1 X64.104 Y59.295 F12000.000
G1 F1800.000 E1.00000
G1 X100.653 Y95.843 F2400.000 E2.02836
G1 F1800.000 E1.02836
G92 E0
G1 X99.439 Y97.514 F12000.000
G1 F1800.000 E1.00000
G1 X82.203 Y80.278 F2400.000 E1.48497
G1 X81.905 Y80.944 F12000.000
G1 X98.933 Y97.971 F2400.000 E1.96406
G1 X98.427 Y98.427 F12000.000
G1 X81.608 Y81.608 F2400.000 E2.43728
G1 X80.942 Y81.904 F12000.000
G1 X97.921 Y98.882 F2400.000 E2.91499
G1 X97.415 Y99.338 F12000.000
G1 X80.277 Y82.200 F2400.000 E3.39720
G1 F1800.000 E2.39720
G92 E0
G1 X89.737 Y104.167 F12000.000
G1 F1800.000 E1.00000
G1 X55.858 Y70.288 F2400.000 E1.95326
G1 X55.561 Y70.954 E1.96775
G1 X89.011 Y104.403 E2.90892
G1 X88.285 Y104.639 E2.92411
G1 X55.265 Y71.619 E3.85318
G1 X55.061 Y72.378 E3.86881
G1 X87.558 Y104.875 E4.78318
G1 X86.832 Y105.111 E4.79837
G1 X54.892 Y73.171 E5.69707
G1 X54.724 Y73.965 E5.71320
G1 X86.106 Y105.347 E6.59621
G1 X85.340 Y105.543 E6.61194
G1 X54.555 Y74.758 E7.47814
G1 X54.386 Y75.551 E7.49428
G1 X84.470 Y105.635 E8.34073
G1 X83.599 Y105.726 E8.35815
G1 X54.218 Y76.345 E9.18485
G1 X54.058 Y77.147 E9.20113
G1 X82.729 Y105.818 E10.00784
G1 X81.858 Y105.909 E10.02525
G1 X54.058 Y78.109 E10.80746
G1 X54.058 Y79.071 E10.82660
G1 X80.988 Y106.001 E11.58432
G1 X80.098 Y106.073 E11.60207
G1 X54.058 Y80.033 E12.33476
G1 X54.058 Y80.995 E12.35390
G1 X79.023 Y105.960 E13.05634
G1 X77.948 Y105.847 E13.07785
G1 X54.058 Y81.957 E13.75004
G1 X54.169 Y83.030 E13.77150
G1 X76.873 Y105.734 E14.41032
G1 X75.798 Y105.621 E14.43182
G1 X54.429 Y84.252 E15.03309
G1 X54.689 Y85.474 E15.05794
G1 X74.693 Y105.478 E15.62079
G1 X73.267 Y105.015 E15.65060
G1 X54.948 Y86.696 E16.16605
G1 X55.257 Y87.966 E16.19206
G1 X71.842 Y104.552 E16.65874
G1 X70.417 Y104.089 E16.68855
G1 X56.029 Y89.700 E17.09340
G1 X56.801 Y91.434 E17.13117
G1 X68.588 Y103.221 E17.46282
G1 X66.312 Y101.907 E17.51511
G1 X58.009 Y93.604 E17.74874
G1 F1800.000 E16.74874
G92 E0
G1 X60.565 Y97.122 F12000.000
G1 F1800.000 E1.00000
G1 X60.963 Y97.520 F2400.000 E1.01119
G1 F1800.000 E0.01119
G92 E0
G1 Z0.400 F12000.000
G1 X78.612 Y81.248
G1 F1800.000 E1.00000
G1 X78.143 Y79.805 F5400.000 E1.03018
G1 X78.902 Y78.489 E1.06041
G1 X80.388 Y78.173 E1.09063
G1 X81.535 Y79.007 E1.11883
G1 X81.787 Y80.191 E1.14292
G1 X81.291 Y81.294 E1.16698
G1 X80.267 Y81.748 E1.18927
G1 X79.563 Y81.674 E1.20334
G1 X78.708 Y81.291 E1.22199
G1 X79.164 Y80.751 F12000.000
G1 X78.882 Y79.882 F5400.000 E1.24017
G1 X79.339 Y79.090 E1.25837
G1 X80.234 Y78.900 E1.27658
G1 X80.925 Y79.402 E1.29358
G1 X81.077 Y80.115 E1.30807
G1 X80.778 Y80.779 E1.32256
G1 X80.158 Y81.054 E1.33607
G1 X79.742 Y81.010 E1.34438
G1 X79.260 Y80.794 E1.35489
G1 F1800.000 E0.35489
G92 E0
G1 X70.450 Y104.681 F12000.000
G1 F1800.000 E1.00000
G1 X69.193 Y104.272 F5400.000 E1.02629
G1 X64.383 Y101.495 E1.13680
G1 X60.255 Y97.778 E1.24732
G1 X56.990 Y93.285 E1.35783
G1 X54.731 Y88.210 E1.46834
G1 X53.576 Y82.777 E1.57885
G1 X53.576 Y77.223 E1.68936
G1 X54.731 Y71.790 E1.79987
G1 X56.990 Y66.715 E1.91038
G1 X60.255 Y62.222 E2.02089
G1 X64.383 Y58.505 E2.13140
G1 X69.193 Y55.728 E2.24191
G1 X74.476 Y54.011 E2.35242
G1 X79.060 Y53.530 E2.44414
G1 X79.060 Y53.530 E2.44414
G1 X80.000 Y53.431 E2.46294
G1 X85.524 Y54.011 E2.57345
G1 X90.807 Y55.728 E2.68396
G1 X95.617 Y58.505 E2.79447
G1 X99.745 Y62.222 E2.90498
G1 X103.010 Y66.715 E3.01549
G1 X105.269 Y71.790 E3.12600
G1 X106.424 Y77.223 E3.23651
G1 X106.424 Y82.777 E3.34702
G1 X105.269 Y88.210 E3.45753
G1 X103.010 Y93.285 E3.56805
G1 X99.745 Y97.778 E3.67856
G1 X95.617 Y101.495 E3.78907
G1 X90.807 Y104.272 E3.89958
G1 X85.524 Y105.989 E4.01009
G1 X80.940 Y106.470 E4.10180
G1 X80.940 Y106.470 E4.10180
G1 X80.000 Y106.569 E4.12060
G1 X74.476 Y105.989 E4.23111
G1 X70.550 Y104.713 E4.31324
G1 X70.241 Y105.326 F12000.000
G1 X68.916 Y104.895 F5400.000 E4.34095
G1 X63.982 Y102.047 E4.45430
G1 X59.748 Y98.235 E4.56765
G1 X56.400 Y93.626 E4.68100
G1 X54.082 Y88.421 E4.79435
G1 X52.898 Y82.849 E4.90770
G1 X52.898 Y77.151 E5.02105
G1 X54.082 Y71.579 E5.13439
G1 X56.400 Y66.374 E5.24774
G1 X59.748 Y61.765 E5.36109
G1 X63.982 Y57.953 E5.47444
G1 X68.916 Y55.105 E5.58779
G1 X74.334 Y53.344 E5.70114
G1 X80.000 Y52.748 E5.81449
G1 X85.666 Y53.344 E5.92784
G1 X91.084 Y55.105 E6.04118
G1 X96.018 Y57.953 E6.15453
G1 X100.252 Y61.765 E6.26788
G1 X103.600 Y66.374 E6.38123
G1 X105.918 Y71.579 E6.49458
G1 X107.102 Y77.151 E6.60793
G1 X107.102 Y82.849 E6.72128
G1 X105.918 Y88.421 E6.83463
G1 X103.600 Y93.626 E6.94798
G1 X100.252 Y98.235 E7.06132
G1 X96.018 Y102.047 E7.17467
G1 X91.084 Y104.895 E7.28802
G1 X85.666 Y106.656 E7.40137
G1 X80.000 Y107.252 E7.51472
G1 X74.334 Y106.656 E7.62807
G1 X70.340 Y105.358 E7.71162
G1 X70.989 Y104.404 F12000.000
G1 X104.440 Y70.953 F12000.000 E8.65284
G1 X104.144 Y70.288 F12000.000
G1 X70.263 Y104.169 F12000.000 E9.60615
G1 X69.537 Y103.933 F12000.000
G1 X103.848 Y69.622 F12000.000 E10.57155
G1 X103.551 Y68.956 F12000.000
G1 X68.884 Y103.623 F12000.000 E11.54695
G1 X68.274 Y103.271 F12000.000
G1 X103.254 Y68.291 F12000.000 E12.53118
G1 X102.958 Y67.625 F12000.000
G1 X67.665 Y102.919 F12000.000 E13.52423
G1 X67.054 Y102.566 F12000.000
G1 X102.661 Y66.959 F12000.000 E14.52609
G1 X102.273 Y66.386 F12000.000
G1 X66.445 Y102.214 F12000.000 E15.53419
G1 X65.835 Y101.862 F12000.000
G1 X101.868 Y65.829 F12000.000 E16.54807
G1 X101.464 Y65.271 F12000.000
G1 X65.225 Y101.510 F12000.000 E17.56772
G1 X64.615 Y101.158 F12000.000
G1 X101.059 Y64.713 F12000.000 E18.59315
G1 X100.654 Y64.157 F12000.000
G1 X64.104 Y100.707 F12000.000 E19.62155
G1 X63.598 Y100.251 F12000.000
G1 X100.249 Y63.600 F12000.000 E20.65281
G1 X99.844 Y63.042 F12000.000
G1 X82.197 Y80.688 F12000.000 E21.14933
G1 X82.151 Y79.773 F12000.000
G1 X99.439 Y62.485 F12000.000 E21.63576
G1 X98.934 Y62.029 F12000.000
G1 X81.983 Y78.979 F12000.000 E22.11270
G1 X81.509 Y78.491 F12000.000
G1 X98.428 Y61.572 F12000.000 E22.58875
G1 X97.921 Y61.116 F12000.000
G1 X80.951 Y78.086 F12000.000 E23.06623
G1 X80.395 Y77.681 F12000.000
G1 X97.415 Y60.661 F12000.000 E23.54512
G1 X96.909 Y60.204 F12000.000
G1 X79.232 Y77.881 F12000.000 E24.04250
G1 F1800.000 E23.04250
G92 E0
G1 X77.626 Y79.487 F12000.000
G1 F1800.000 E1.00000
G1 X60.156 Y96.957 F12000.000 E1.49156
G1 X59.751 Y96.400 F12000.000
G1 X96.402 Y59.749 F12000.000 E2.52283
G1 X95.896 Y59.293 F12000.000
G1 X59.346 Y95.843 F12000.000 E3.55123
G1 X58.942 Y95.286 F12000.000
G1 X95.386 Y58.842 F12000.000 E4.57665
G1 X94.775 Y58.490 F12000.000
G1 X58.536 Y94.729 F12000.000 E5.59629
G1 X58.132 Y94.172 F12000.000
G1 X94.165 Y58.138 F12000.000 E6.61017
G1 X93.556 Y57.786 F12000.000
G1 X57.727 Y93.615 F12000.000 E7.61828
G1 X57.338 Y93.040 F12000.000
G1 X92.945 Y57.433 F12000.000 E8.62016
G1 X92.335 Y57.082 F12000.000
G1 X57.042 Y92.375 F12000.000 E9.61321
G1 X56.746 Y91.710 F12000.000
G1 X91.726 Y56.730 F12000.000 E10.59744
G1 X91.115 Y56.377 F12000.000
G1 X56.449 Y91.043 F12000.000 E11.57285
G1 X56.153 Y90.378 F12000.000
G1 X90.463 Y56.067 F12000.000 E12.53826
G1 X89.737 Y55.831 F12000.000
