; generated by Slic3r 0.8.3-dev on 2012-06-12 at 01:25:49

; layer_height = 0.2
; perimeters = 2
; solid_layers = 5
; fill_density = 0.5
; nozzle_diameter = 0.5
; filament_diameter = 2.9
; extrusion_multiplier = 1
; perimeter_speed = 90
; infill_speed = 200
; travel_speed = 200
; scale = 1
; single wall width = 0.70mm

;G28 ; home all axes
G90 ; use absolute coordinates
G21 ; set units to millimeters
G92 E0 ; reset extrusion distance
M82 ; use absolute distances for extrusion
G1 Z0.200 F12000.000
G1 X59.849 Y74.005
G1 F600.000 E1.00000
G1 X61.469 Y72.625 F1080.000 E1.04234
G1 X61.909 Y72.305 E1.05316
G1 X64.019 Y71.165 E1.10088
G1 X64.489 Y70.945 E1.11121
G1 X64.739 Y70.845 E1.11656
G1 X67.269 Y70.135 E1.16884
G1 X67.779 Y70.045 E1.17915
G1 X70.459 Y69.885 E1.23256
G1 X89.849 Y69.895 E1.61834
G1 X91.969 Y70.015 E1.66059
G1 X92.729 Y70.135 E1.67590
G1 X95.269 Y70.845 E1.72837
G1 X95.759 Y71.055 E1.73898
G1 X97.859 Y72.175 E1.78633
G1 X98.309 Y72.465 E1.79698
G1 X100.319 Y74.165 E1.84936
G1 X100.679 Y74.525 E1.85949
G1 X102.279 Y76.605 E1.91170
G1 X102.429 Y76.825 E1.91699
G1 X102.689 Y77.275 E1.92733
G1 X103.689 Y79.425 E1.97451
G1 X103.869 Y79.925 E1.98508
G1 X104.449 Y82.505 E2.03770
G1 X104.519 Y83.015 E2.04794
G1 X104.539 Y84.115 E2.06983
G1 X104.519 Y84.625 E2.07998
G1 X104.409 Y85.375 E2.09506
G1 X104.279 Y85.875 E2.10534
G1 X104.109 Y86.355 E2.11547
G1 X103.899 Y86.815 E2.12553
G1 X103.779 Y87.045 E2.13069
G1 X103.649 Y87.265 E2.13578
G1 X103.209 Y87.885 E2.15091
G1 X102.869 Y88.265 E2.16105
G1 X102.689 Y88.445 E2.16611
G1 X102.309 Y88.785 E2.17626
G1 X101.689 Y89.225 E2.19139
G1 X101.469 Y89.355 E2.19647
G1 X101.009 Y89.585 E2.20670
G1 X100.539 Y89.775 E2.21679
G1 X100.049 Y89.925 E2.22698
G1 X99.799 Y89.985 E2.23210
G1 X99.049 Y90.095 E2.24718
G1 X98.539 Y90.115 E2.25734
G1 X60.949 Y90.095 E3.00522
G1 X60.199 Y89.985 E3.02030
G1 X59.699 Y89.855 E3.03058
G1 X59.219 Y89.685 E3.04071
G1 X58.759 Y89.475 E3.05077
G1 X58.529 Y89.355 E3.05593
G1 X58.309 Y89.225 E3.06102
G1 X57.689 Y88.785 E3.07614
G1 X57.309 Y88.445 E3.08629
G1 X57.129 Y88.265 E3.09135
G1 X56.789 Y87.885 E3.10150
G1 X56.349 Y87.265 E3.11662
G1 X56.219 Y87.045 E3.12171
G1 X55.989 Y86.585 E3.13194
G1 X55.799 Y86.115 E3.14203
G1 X55.649 Y85.625 E3.15222
G1 X55.589 Y85.375 E3.15734
G1 X55.479 Y84.625 E3.17242
G1 X55.459 Y83.535 E3.19411
G1 X55.479 Y83.025 E3.20426
G1 X55.589 Y82.275 E3.21935
G1 X56.119 Y79.935 E3.26708
G1 X56.199 Y79.685 E3.27230
G1 X57.299 Y77.275 E3.32501
G1 X57.559 Y76.825 E3.33535
G1 X59.149 Y74.715 E3.38792
G1 X59.309 Y74.525 E3.39286
G1 X59.669 Y74.165 E3.40299
G1 X59.771 Y74.075 E3.40569
G1 F600.000 E2.40569
G92 E0
G1 X82.822 Y81.144 F12000.000
G1 F600.000 E1.00000
G1 X83.704 Y79.679 F1080.000 E1.03402
G1 X84.880 Y78.437 E1.06805
G1 X86.295 Y77.478 E1.10208
G1 X87.884 Y76.845 E1.13610
G1 X89.572 Y76.568 E1.17013
G1 X91.280 Y76.661 E1.20415
G1 X92.927 Y77.118 E1.23818
G1 X94.438 Y77.919 E1.27220
G1 X95.742 Y79.026 E1.30623
G1 X96.777 Y80.388 E1.34025
G1 X97.495 Y81.940 E1.37428
G1 X97.824 Y83.437 E1.40477
G1 X96.434 Y83.437 E1.43244
G1 X96.225 Y82.496 E1.45161
G1 X95.801 Y81.637 E1.47066
G1 X95.162 Y80.935 E1.48954
G1 X94.342 Y80.462 E1.50839
G1 X93.415 Y80.259 E1.52727
G1 X92.459 Y80.322 E1.54632
G1 X91.526 Y80.615 E1.56579
G1 X90.643 Y81.105 E1.58586
G1 X89.833 Y81.760 E1.60659
G1 X89.115 Y82.551 E1.62785
G1 X88.518 Y83.437 E1.64910
G1 X82.203 Y83.437 E1.77474
G1 X82.276 Y82.765 E1.78818
G1 X82.789 Y81.244 E1.82011
G1 X82.203 Y80.858 F12000.000
G1 X83.160 Y79.266 F1080.000 E1.85708
G1 X84.438 Y77.917 E1.89404
G1 X85.976 Y76.875 E1.93100
G1 X87.702 Y76.187 E1.96796
G1 X89.535 Y75.886 E2.00492
G1 X91.390 Y75.987 E2.04189
G1 X93.180 Y76.484 E2.07885
G1 X94.821 Y77.354 E2.11581
G1 X96.237 Y78.557 E2.15277
G1 X97.362 Y80.036 E2.18973
G1 X98.142 Y81.722 E2.22670
G1 X98.541 Y83.536 E2.26366
G1 X98.541 Y84.115 E2.27518
G1 X95.770 Y84.115 E2.33031
G1 X95.760 Y83.531 E2.34193
G1 X95.580 Y82.723 E2.35840
G1 X95.235 Y82.023 E2.37393
G1 X94.731 Y81.470 E2.38881
G1 X94.094 Y81.102 E2.40345
G1 X93.363 Y80.943 E2.41833
G1 X92.585 Y80.994 E2.43385
G1 X91.795 Y81.242 E2.45033
G1 X91.024 Y81.670 E2.46786
G1 X90.301 Y82.255 E2.48637
G1 X89.650 Y82.971 E2.50562
G1 X89.098 Y83.790 E2.52527
G1 X88.939 Y84.115 E2.53248
G1 X81.447 Y84.115 E2.68155
G1 X81.610 Y82.618 E2.71150
G1 X82.169 Y80.957 E2.74638
G1 F600.000 E1.74638
G92 E0
G1 X77.724 Y82.765 F12000.000
G1 F600.000 E1.00000
G1 X77.797 Y83.437 F1080.000 E1.01344
G1 X71.482 Y83.437 E1.13908
G1 X70.885 Y82.551 E1.16033
G1 X70.167 Y81.760 E1.18159
G1 X69.353 Y81.102 E1.20239
G1 X68.441 Y80.605 E1.22308
G1 X67.541 Y80.322 E1.24184
G1 X66.585 Y80.259 E1.26090
G1 X65.658 Y80.462 E1.27978
G1 X64.838 Y80.935 E1.29862
G1 X64.199 Y81.637 E1.31750
G1 X63.775 Y82.496 E1.33656
G1 X63.566 Y83.437 E1.35573
G1 X62.176 Y83.437 E1.38339
G1 X62.505 Y81.940 E1.41388
G1 X63.223 Y80.388 E1.44791
G1 X64.258 Y79.026 E1.48193
G1 X65.562 Y77.919 E1.51596
G1 X67.073 Y77.118 E1.54999
G1 X68.720 Y76.661 E1.58401
G1 X70.428 Y76.568 E1.61804
G1 X72.116 Y76.845 E1.65206
G1 X73.705 Y77.478 E1.68609
G1 X75.120 Y78.437 E1.72011
G1 X76.296 Y79.679 E1.75414
G1 X77.178 Y81.144 E1.78816
G1 X77.690 Y82.665 E1.82010
G1 X78.390 Y82.618 F12000.000
G1 X78.553 Y84.115 F1080.000 E1.85006
G1 X71.061 Y84.115 E1.99913
G1 X70.902 Y83.790 E2.00634
G1 X70.350 Y82.971 E2.02598
G1 X69.699 Y82.255 E2.04523
G1 X68.975 Y81.669 E2.06377
G1 X68.174 Y81.232 E2.08192
G1 X67.415 Y80.994 E2.09774
G1 X66.637 Y80.943 E2.11327
G1 X65.906 Y81.102 E2.12814
G1 X65.269 Y81.470 E2.14279
G1 X64.765 Y82.023 E2.15766
G1 X64.420 Y82.723 E2.17319
G1 X64.240 Y83.531 E2.18967
G1 X64.230 Y84.115 E2.20128
G1 X61.459 Y84.115 E2.25642
G1 X61.459 Y83.536 E2.26794
G1 X61.858 Y81.722 E2.30490
G1 X62.638 Y80.036 E2.34186
G1 X63.763 Y78.557 E2.37882
G1 X65.179 Y77.354 E2.41578
G1 X66.820 Y76.484 E2.45275
G1 X68.610 Y75.987 E2.48971
G1 X70.465 Y75.886 E2.52667
G1 X72.298 Y76.187 E2.56363
G1 X74.024 Y76.875 E2.60059
G1 X75.562 Y77.917 E2.63756
G1 X76.840 Y79.266 E2.67452
G1 X77.797 Y80.858 E2.71148
G1 X78.357 Y82.519 E2.74635
G1 F600.000 E1.74635
G92 E0
G1 X83.192 Y82.956 F12000.000
G1 F600.000 E1.00000
G1 X82.796 Y82.560 F2400.000 E1.01115
G1 X83.041 Y81.833 E1.02640
G1 X84.164 Y82.956 E1.05800
G1 X85.136 Y82.956 E1.07733
G1 X83.307 Y81.127 E1.12878
G1 X83.672 Y80.521 E1.14287
G1 X86.107 Y82.956 E1.21139
G1 X87.079 Y82.956 E1.23072
G1 X84.037 Y79.914 E1.31632
G1 X84.506 Y79.412 E1.32999
G1 X88.050 Y82.956 E1.42972
G1 X88.624 Y82.558 E1.44361
G1 X84.979 Y78.913 E1.54618
G1 X85.525 Y78.488 E1.55995
G1 X89.058 Y82.021 E1.65936
G1 X89.520 Y81.511 E1.67305
G1 X86.104 Y78.095 E1.76917
G1 X86.736 Y77.755 E1.78345
G1 X90.051 Y81.070 E1.87671
G1 X90.609 Y80.656 E1.89053
G1 X87.431 Y77.479 E1.97994
G1 X88.177 Y77.254 E1.99545
G1 X91.233 Y80.310 E2.08144
G1 X91.932 Y80.037 E2.09636
G1 X89.012 Y77.117 E2.17852
G1 X89.947 Y77.081 E2.19714
G1 X92.704 Y79.837 E2.27470
G1 X93.616 Y79.777 E2.29288
G1 X90.976 Y77.137 E2.36717
G1 X92.321 Y77.511 E2.39494
G1 X94.887 Y80.077 E2.46715
G1 X95.254 Y79.473 E2.48122
G1 X95.651 Y79.869 E2.49238
G1 X96.467 Y81.656 F12000.000
G1 X96.943 Y82.133 F2400.000 E2.50578
G1 F600.000 E1.50578
G92 E0
G1 X74.878 Y79.158 F12000.000
G1 F600.000 E1.00000
G1 X74.480 Y78.759 F2400.000 E1.01122
G1 X72.273 Y77.518 E1.06159
G1 X76.946 Y82.192 E1.19308
G1 X76.744 Y82.956 E1.20881
G1 X70.966 Y77.178 E1.37139
G1 X69.890 Y77.068 E1.39292
G1 X75.778 Y82.956 E1.55860
G1 X74.812 Y82.956 E1.57782
G1 X68.974 Y77.117 E1.74210
G1 X68.158 Y77.268 E1.75861
G1 X73.846 Y82.956 E1.91866
G1 X72.880 Y82.956 E1.93788
G1 X67.401 Y77.478 E2.09202
G1 X66.725 Y77.767 E2.10667
G1 X69.406 Y80.448 E2.18210
G1 X67.838 Y79.846 E2.21552
G1 X66.093 Y78.102 E2.26460
G1 X65.511 Y78.486 E2.27847
G1 X66.804 Y79.779 E2.31485
G1 X65.994 Y79.935 E2.33126
G1 X64.989 Y78.930 E2.35955
G1 X64.466 Y79.374 E2.37319
G1 X65.294 Y80.201 E2.39647
G1 X64.681 Y80.555 E2.41054
G1 X64.067 Y79.940 E2.42783
G1 X63.650 Y80.489 E2.44155
G1 X64.202 Y81.042 E2.45709
G1 X63.769 Y81.575 F12000.000
G1 X63.333 Y81.139 F2400.000 E2.46934
G1 X63.028 Y81.800 E2.48382
G1 X63.450 Y82.222 E2.49569
G1 X62.822 Y82.560 E2.50988
G1 X63.218 Y82.956 E2.52103
G1 F600.000 E1.52103
G92 E0
G1 Z0.400 F12000.000
G1 X82.203 Y83.437
G1 F600.000 E1.00000
G1 X82.276 Y82.765 F5400.000 E1.01344
G1 X82.822 Y81.145 E1.04745
G1 X83.713 Y79.669 E1.08176
G1 X84.880 Y78.437 E1.11551
G1 X86.295 Y77.478 E1.14954
G1 X87.884 Y76.845 E1.18356
G1 X89.572 Y76.568 E1.21759
G1 X91.280 Y76.661 E1.25161
G1 X92.927 Y77.118 E1.28564
G1 X94.438 Y77.919 E1.31966
G1 X95.742 Y79.026 E1.35369
G1 X96.777 Y80.388 E1.38771
G1 X97.495 Y81.940 E1.42174
G1 X97.824 Y83.437 E1.45223
G1 X96.434 Y83.437 E1.47990
G1 X96.225 Y82.496 E1.49907
G1 X95.801 Y81.637 E1.51812
G1 X95.162 Y80.935 E1.53700
G1 X94.342 Y80.462 E1.55585
G1 X93.415 Y80.259 E1.57473
G1 X92.459 Y80.322 E1.59378
G1 X91.526 Y80.615 E1.61325
G1 X90.643 Y81.105 E1.63332
G1 X89.833 Y81.760 E1.65405
G1 X89.115 Y82.551 E1.67531
G1 X88.518 Y83.437 E1.69656
G1 X82.308 Y83.437 E1.82011
G1 X81.610 Y82.618 F12000.000
G1 X82.203 Y80.858 F5400.000 E1.85706
G1 X83.170 Y79.255 E1.89431
G1 X84.438 Y77.917 E1.93099
G1 X85.976 Y76.875 E1.96795
G1 X87.702 Y76.187 E2.00491
G1 X89.535 Y75.886 E2.04187
G1 X91.390 Y75.987 E2.07883
G1 X93.180 Y76.484 E2.11580
G1 X94.821 Y77.354 E2.15276
G1 X96.237 Y78.557 E2.18972
G1 X97.362 Y80.036 E2.22668
G1 X98.142 Y81.722 E2.26364
G1 X98.541 Y83.536 E2.30061
G1 X98.541 Y84.115 E2.31212
G1 X95.770 Y84.115 E2.36726
G1 X95.760 Y83.531 E2.37888
G1 X95.580 Y82.723 E2.39535
G1 X95.235 Y82.023 E2.41088
G1 X94.731 Y81.470 E2.42575
G1 X94.094 Y81.102 E2.44040
G1 X93.363 Y80.943 E2.45527
G1 X92.585 Y80.994 E2.47080
G1 X91.795 Y81.242 E2.48728
G1 X91.024 Y81.670 E2.50481
G1 X90.301 Y82.255 E2.52332
G1 X89.650 Y82.971 E2.54257
G1 X89.098 Y83.790 E2.56222
G1 X88.939 Y84.115 E2.56942
G1 X81.447 Y84.115 E2.71850
G1 X81.598 Y82.723 E2.74636
G1 F600.000 E1.74636
G92 E0
G1 X77.797 Y83.437 F12000.000
G1 F600.000 E1.00000
G1 X71.482 Y83.437 F5400.000 E1.12564
G1 X70.885 Y82.551 E1.14689
G1 X70.167 Y81.760 E1.16815
G1 X69.356 Y81.105 E1.18888
G1 X68.474 Y80.615 E1.20895
G1 X67.541 Y80.322 E1.22841
G1 X66.585 Y80.259 E1.24747
G1 X65.658 Y80.462 E1.26635
G1 X64.838 Y80.935 E1.28519
G1 X64.199 Y81.637 E1.30407
G1 X63.775 Y82.496 E1.32313
G1 X63.566 Y83.437 E1.34230
G1 X62.176 Y83.437 E1.36996
G1 X62.505 Y81.940 E1.40045
G1 X63.223 Y80.388 E1.43448
G1 X64.258 Y79.026 E1.46851
G1 X65.562 Y77.919 E1.50253
G1 X67.073 Y77.118 E1.53656
G1 X68.720 Y76.661 E1.57058
G1 X70.428 Y76.568 E1.60461
G1 X72.116 Y76.845 E1.63863
G1 X73.705 Y77.478 E1.67266
G1 X75.120 Y78.437 E1.70668
G1 X76.296 Y79.679 E1.74071
G1 X77.178 Y81.144 E1.77474
G1 X77.724 Y82.765 E1.80876
G1 X77.786 Y83.332 E1.82011
G1 X78.390 Y82.618 F12000.000
G1 X78.553 Y84.115 F5400.000 E1.85007
G1 X71.061 Y84.115 E1.99914
G1 X70.902 Y83.790 E2.00635
G1 X70.350 Y82.971 E2.02600
G1 X69.699 Y82.255 E2.04525
G1 X68.976 Y81.670 E2.06376
G1 X68.205 Y81.242 E2.08129
G1 X67.415 Y80.994 E2.09777
G1 X66.637 Y80.943 E2.11329
G1 X65.906 Y81.102 E2.12817
G1 X65.269 Y81.470 E2.14281
G1 X64.765 Y82.023 E2.15769
G1 X64.420 Y82.723 E2.17322
G1 X64.240 Y83.531 E2.18969
G1 X64.230 Y84.115 E2.20131
G1 X61.459 Y84.115 E2.25644
G1 X61.459 Y83.536 E2.26796
G1 X61.858 Y81.722 E2.30492
G1 X62.638 Y80.036 E2.34189
G1 X63.763 Y78.557 E2.37885
G1 X65.179 Y77.354 E2.41581
G1 X66.820 Y76.484 E2.45277
G1 X68.610 Y75.987 E2.48973
G1 X70.465 Y75.886 E2.52669
G1 X72.298 Y76.187 E2.56366
G1 X74.024 Y76.875 E2.60062
G1 X75.562 Y77.917 E2.63758
G1 X76.840 Y79.266 E2.67454
G1 X77.797 Y80.858 E2.71150
G1 X78.357 Y82.519 E2.74638
G1 F600.000 E1.74638
G92 E0
G1 X83.025 Y82.277 F12000.000
G1 F600.000 E1.00000
G1 X87.822 Y77.481 F12000.000 E1.13497
G1 X89.169 Y77.156 F12000.000
G1 X83.369 Y82.956 F12000.000 E1.29817
G1 X84.393 Y82.956 F12000.000
G1 X90.272 Y77.077 F12000.000 E1.46361
G1 X91.242 Y77.129 F12000.000
G1 X85.415 Y82.956 F12000.000 E1.62756
G1 X86.439 Y82.956 F12000.000
G1 X92.065 Y77.330 F12000.000 E1.78587
G1 X92.866 Y77.552 F12000.000
G1 X87.462 Y82.956 F12000.000 E1.93793
G1 F600.000 E0.93793
G92 E0
G1 X85.121 Y79.158 F12000.000
G1 F600.000 E1.00000
G1 X85.520 Y78.759 F12000.000 E1.01122
G1 F600.000 E0.01122
G92 E0
G1 X91.343 Y80.097 F12000.000
G1 F600.000 E1.00000
G1 X93.535 Y77.905 F12000.000 E1.06167
G1 X94.204 Y78.260 F12000.000
G1 X92.649 Y79.815 F12000.000 E1.10542
G1 X93.633 Y79.854 F12000.000
G1 X94.766 Y78.721 F12000.000 E1.13729
G1 X95.319 Y79.191 F12000.000
G1 X94.455 Y80.056 F12000.000 E1.16162
G1 X95.103 Y80.430 F12000.000
G1 X95.786 Y79.747 F12000.000 E1.18084
G1 X96.228 Y80.329 F12000.000
G1 X95.663 Y80.894 F12000.000 E1.19673
G1 X96.595 Y80.984 F12000.000
G1 X96.151 Y81.429 F12000.000 E1.20924
G1 X96.494 Y82.108 E1.22439
G1 X96.891 Y81.711 E1.23555
G1 F600.000 E0.23555
G92 E0
G1 X77.203 Y82.560 F12000.000
G1 F600.000 E1.00000
G1 X76.807 Y82.956 F12000.000 E1.01115
G1 X75.838 Y82.956 F12000.000
G1 X76.959 Y81.835 F12000.000 E1.04270
G1 X76.694 Y81.130 F12000.000
G1 X74.868 Y82.956 F12000.000 E1.09409
G1 X73.898 Y82.956 F12000.000
G1 X76.330 Y80.524 F12000.000 E1.16251
G1 X75.966 Y79.919 F12000.000
G1 X72.929 Y82.956 F12000.000 E1.24796
G1 X71.959 Y82.956 F12000.000
G1 X75.499 Y79.417 F12000.000 E1.34755
G1 X75.027 Y78.919 F12000.000
G1 X71.381 Y82.565 F12000.000 E1.45015
G1 X70.948 Y82.028 F12000.000
G1 X74.483 Y78.493 F12000.000 E1.54960
G1 X73.905 Y78.101 F12000.000
G1 X70.487 Y81.519 F12000.000 E1.64578
G1 X69.959 Y81.078 F12000.000
G1 X73.277 Y77.761 F12000.000 E1.73912
G1 X72.583 Y77.484 F12000.000
G1 X69.404 Y80.663 F12000.000 E1.82857
G1 X68.780 Y80.317 F12000.000
G1 X71.841 Y77.256 F12000.000 E1.91469
G1 X71.008 Y77.120 F12000.000
G1 X68.086 Y80.042 F12000.000 E1.99691
G1 X67.320 Y79.838 F12000.000
G1 X70.079 Y77.079 F12000.000 E2.07455
G1 X69.054 Y77.134 F12000.000
G1 X66.409 Y79.779 F12000.000 E2.14896
G1 X65.182 Y80.037 F12000.000
G1 X67.720 Y77.500 F12000.000 E2.22036
G1 F600.000 E1.22036
G92 E0
G1 X64.952 Y79.297 F12000.000
G1 F600.000 E1.00000
G1 X64.555 Y79.694 F12000.000 E1.01118
G1 F600.000 E0.01118
G92 E0
G1 Z0.600 F12000.000
G1 X82.423 Y82.797
G1 F600.000 E1.00000
G1 X82.959 Y81.207 F5400.000 E1.03338
G1 X83.824 Y79.770 E1.06676
G1 X84.977 Y78.552 E1.10014
G1 X86.366 Y77.611 E1.13351
G1 X87.924 Y76.990 E1.16689
G1 X89.580 Y76.718 E1.20027
G1 X91.255 Y76.809 E1.23365
G1 X92.872 Y77.258 E1.26703
G1 X94.354 Y78.044 E1.30041
G1 X95.633 Y79.130 E1.33378
G1 X96.648 Y80.465 E1.36716
G1 X97.352 Y81.988 E1.40054
G1 X97.671 Y83.437 E1.43005
G1 X96.434 Y83.437 E1.45467
G1 X96.225 Y82.496 E1.47384
G1 X95.801 Y81.637 E1.49290
G1 X95.162 Y80.935 E1.51178
G1 X94.342 Y80.462 E1.53062
G1 X93.415 Y80.259 E1.54950
G1 X92.459 Y80.322 E1.56856
G1 X91.526 Y80.615 E1.58802
G1 X90.643 Y81.105 E1.60810
G1 X89.833 Y81.760 E1.62882
G1 X89.115 Y82.551 E1.65008
G1 X88.518 Y83.437 E1.67134
G1 X82.353 Y83.437 E1.79398
G1 X82.412 Y82.902 E1.80468
G1 X81.756 Y82.651 F12000.000
G1 X82.339 Y80.921 F5400.000 E1.84100
G1 X83.280 Y79.357 E1.87731
G1 X84.535 Y78.032 E1.91363
G1 X86.046 Y77.007 E1.94994
G1 X87.742 Y76.332 E1.98626
G1 X89.543 Y76.037 E2.02257
G1 X91.366 Y76.135 E2.05889
G1 X93.124 Y76.624 E2.09520
G1 X94.737 Y77.479 E2.13152
G1 X96.128 Y78.660 E2.16783
G1 X97.233 Y80.113 E2.20415
G1 X97.999 Y81.770 E2.24046
G1 X98.391 Y83.553 E2.27678
G1 X98.391 Y84.115 E2.28797
G1 X95.770 Y84.115 E2.34013
G1 X95.760 Y83.531 E2.35175
G1 X95.580 Y82.723 E2.36822
G1 X95.235 Y82.023 E2.38375
G1 X94.731 Y81.470 E2.39863
G1 X94.094 Y81.102 E2.41327
G1 X93.363 Y80.943 E2.42815
G1 X92.585 Y80.994 E2.44368
G1 X91.795 Y81.242 E2.46015
G1 X91.024 Y81.670 E2.47768
G1 X90.301 Y82.255 E2.49619
G1 X89.650 Y82.971 E2.51545
G1 X89.098 Y83.790 E2.53509
G1 X88.939 Y84.115 E2.54230
G1 X81.597 Y84.115 E2.68838
G1 X81.745 Y82.755 E2.71560
G1 F600.000 E1.71560
G92 E0
G1 X77.647 Y83.437 F12000.000
G1 F600.000 E1.00000
G1 X71.482 Y83.437 F5400.000 E1.12264
G1 X70.885 Y82.551 E1.14390
G1 X70.167 Y81.760 E1.16516
