; generated by Slic3r 0.8.3-dev on 2012-06-12 at 01:47:45

; layer_height = 0.2
; perimeters = 2
; solid_layers = 5
; fill_density = 0.5
; nozzle_diameter = 0.5
; filament_diameter = 2.9
; extrusion_multiplier = 1
; perimeter_speed = 90
; infill_speed = 200
; travel_speed = 200
; scale = 1
; single wall width = 0.70mm

;G28 ; home all axes
G90 ; use absolute coordinates
G21 ; set units to millimeters
G92 E0 ; reset extrusion distance
M82 ; use absolute distances for extrusion
G1 Z0.200 F12000.000
G1 X55.860 Y73.617
G1 F600.000 E1.00000
G1 X57.860 Y72.187 F1080.000 E1.04892
G1 X58.330 Y71.937 E1.05951
G1 X58.830 Y71.717 E1.07038
G1 X59.600 Y71.487 E1.08637
G1 X60.130 Y71.387 E1.09710
G1 X60.400 Y71.357 E1.10250
G1 X60.940 Y71.337 E1.11325
G1 X101.230 Y71.347 E1.91486
G1 X101.810 Y71.397 E1.92644
G1 X102.370 Y71.507 E1.93779
G1 X102.930 Y71.677 E1.94944
G1 X103.200 Y71.777 E1.95516
G1 X104.160 Y72.257 E1.97652
G1 X104.600 Y72.537 E1.98690
G1 X105.020 Y72.857 E1.99740
G1 X105.210 Y73.027 E2.00247
G1 X105.580 Y73.397 E2.01288
G1 X105.920 Y73.797 E2.02333
G1 X106.350 Y74.457 E2.03900
G1 X106.480 Y74.687 E2.04426
G1 X106.700 Y75.157 E2.05458
G1 X106.950 Y75.897 E2.07012
G1 X107.060 Y76.407 E2.08050
G1 X107.130 Y76.927 E2.09094
G1 X107.130 Y83.067 E2.21310
G1 X107.060 Y83.587 E2.22354
G1 X106.950 Y84.097 E2.23392
G1 X106.700 Y84.837 E2.24946
G1 X106.480 Y85.307 E2.25979
G1 X106.210 Y85.767 E2.27040
G1 X105.920 Y86.197 E2.28072
G1 X105.580 Y86.597 E2.29116
G1 X105.210 Y86.967 E2.30157
G1 X105.020 Y87.137 E2.30665
G1 X104.600 Y87.457 E2.31715
G1 X104.160 Y87.737 E2.32753
G1 X103.200 Y88.217 E2.34888
G1 X102.650 Y88.407 E2.36046
G1 X102.370 Y88.487 E2.36625
G1 X101.810 Y88.597 E2.37761
G1 X100.940 Y88.657 E2.39496
G1 X60.400 Y88.637 E3.20154
G1 X60.130 Y88.607 E3.20694
G1 X59.600 Y88.507 E3.21767
G1 X58.830 Y88.277 E3.23366
G1 X58.090 Y87.937 E3.24986
G1 X57.860 Y87.807 E3.25512
G1 X55.640 Y86.217 E3.30945
G1 X55.240 Y85.857 E3.32015
G1 X54.870 Y85.477 E3.33071
G1 X54.380 Y84.837 E3.34674
G1 X54.110 Y84.377 E3.35736
G1 X53.780 Y83.647 E3.37329
G1 X53.110 Y81.597 E3.41620
G1 X53.040 Y81.337 E3.42156
G1 X52.940 Y80.807 E3.43229
G1 X52.910 Y80.537 E3.43770
G1 X52.890 Y79.997 E3.44845
G1 X52.910 Y79.457 E3.45920
G1 X52.940 Y79.187 E3.46460
G1 X53.040 Y78.657 E3.47534
G1 X53.780 Y76.347 E3.52360
G1 X53.990 Y75.857 E3.53420
G1 X54.240 Y75.387 E3.54479
G1 X54.380 Y75.157 E3.55015
G1 X54.870 Y74.517 E3.56619
G1 X55.240 Y74.137 E3.57674
G1 X55.640 Y73.777 E3.58745
G1 X55.775 Y73.679 E3.59077
G1 F600.000 E2.59077
G92 E0
G1 X99.606 Y80.000 F12000.000
G1 F600.000 E1.00000
G1 X99.989 Y78.824 F1080.000 E1.02461
G1 X100.471 Y78.900 E1.03433
G1 X100.471 Y81.100 E1.07809
G1 X99.989 Y81.176 E1.08782
G1 X99.639 Y80.100 E1.11034
G1 X98.893 Y80.000 F12000.000
G1 X99.391 Y78.468 F1080.000 E1.14239
G1 X100.941 Y77.341 E1.18052
G1 X101.150 Y77.447 E1.18518
G1 X101.150 Y82.552 E1.28675
G1 X100.941 Y82.659 E1.29141
G1 X99.391 Y81.532 E1.32954
G1 X98.925 Y80.100 E1.35951
G1 F600.000 E0.35951
G92 E0
G1 X60.471 Y81.100 F12000.000
G1 F600.000 E1.00000
G1 X59.989 Y81.176 F1080.000 E1.00973
G1 X59.606 Y80.000 E1.03433
G1 X59.989 Y78.824 E1.05893
G1 X60.471 Y78.900 E1.06866
G1 X60.471 Y80.995 E1.11033
G1 X59.391 Y81.532 F12000.000
G1 X58.893 Y80.000 F1080.000 E1.14239
G1 X59.391 Y78.468 E1.17444
G1 X60.941 Y77.341 E1.21257
G1 X61.150 Y77.448 E1.21723
G1 X61.150 Y82.552 E1.31880
G1 X60.941 Y82.659 E1.32346
G1 X59.476 Y81.594 E1.35950
G1 F600.000 E0.35950
G92 E0
G1 Z0.400 F12000.000
G1 X99.656 Y80.000
G1 F600.000 E1.00000
G1 X99.989 Y78.978 F5400.000 E1.02139
G1 X100.471 Y79.054 E1.03111
G1 X100.471 Y80.946 E1.06875
G1 X99.989 Y81.022 E1.07848
G1 X99.689 Y80.100 E1.09778
G1 X98.943 Y80.000 F12000.000
G1 X99.431 Y78.497 F5400.000 E1.12922
G1 X100.941 Y77.400 E1.16635
G1 X101.150 Y77.506 E1.17101
G1 X101.150 Y82.494 E1.27024
G1 X100.941 Y82.600 E1.27490
G1 X99.431 Y81.503 E1.31204
G1 X98.975 Y80.100 E1.34139
G1 F600.000 E0.34139
G92 E0
G1 X60.471 Y80.946 F12000.000
G1 F600.000 E1.00000
G1 X59.989 Y81.022 F5400.000 E1.00973
G1 X59.656 Y80.000 E1.03111
G1 X59.989 Y78.978 E1.05250
G1 X60.471 Y79.054 E1.06222
G1 X60.471 Y80.841 E1.09777
G1 X59.431 Y81.503 F12000.000
G1 X58.943 Y80.000 F5400.000 E1.12921
G1 X59.431 Y78.497 E1.16065
G1 X60.941 Y77.400 E1.19779
G1 X61.150 Y77.506 E1.20245
G1 X61.150 Y82.494 E1.30168
G1 X60.941 Y82.600 E1.30634
G1 X59.516 Y81.565 E1.34138
G1 F600.000 E0.34138
G92 E0
G1 Z0.600 F12000.000
G1 X99.706 Y80.000
G1 F600.000 E1.00000
G1 X99.989 Y79.132 F5400.000 E1.01817
G1 X100.471 Y79.208 E1.02789
G1 X100.471 Y80.792 E1.05941
G1 X99.989 Y80.868 E1.06914
G1 X99.739 Y80.100 E1.08522
G1 X98.993 Y80.000 F12000.000
G1 X99.472 Y78.526 F5400.000 E1.11604
G1 X100.941 Y77.459 E1.15218
G1 X101.150 Y77.565 E1.15684
G1 X101.150 Y82.435 E1.25373
G1 X100.941 Y82.541 E1.25839
G1 X99.472 Y81.474 E1.29453
G1 X99.025 Y80.100 E1.32327
G1 F600.000 E0.32327
G92 E0
G1 X60.471 Y80.792 F12000.000
G1 F600.000 E1.00000
G1 X59.989 Y80.868 F5400.000 E1.00973
G1 X59.706 Y80.000 E1.02789
G1 X59.989 Y79.132 E1.04606
G1 X60.471 Y79.208 E1.05579
G1 X60.471 Y80.687 E1.08521
G1 X59.472 Y81.474 F12000.000
G1 X58.993 Y80.000 F5400.000 E1.11604
G1 X59.472 Y78.526 E1.14687
G1 X60.941 Y77.459 E1.18301
G1 X61.150 Y77.565 E1.18767
G1 X61.150 Y82.435 E1.28456
G1 X60.941 Y82.541 E1.28922
G1 X59.557 Y81.535 E1.32327
G1 F600.000 E0.32327
G92 E0
G1 Z0.800 F12000.000
G1 X99.756 Y80.000
G1 F600.000 E1.00000
G1 X99.989 Y79.285 F5400.000 E1.01495
G1 X100.471 Y79.362 E1.02468
G1 X100.471 Y80.638 E1.05007
G1 X99.989 Y80.715 E1.05980
G1 X99.789 Y80.100 E1.07266
G1 X99.043 Y80.000 F12000.000
G1 X99.512 Y78.556 F5400.000 E1.10287
G1 X100.941 Y77.517 E1.13802
G1 X101.150 Y77.624 E1.14268
G1 X101.150 Y82.376 E1.23723
G1 X100.941 Y82.483 E1.24189
G1 X99.512 Y81.444 E1.27703
G1 X99.075 Y80.100 E1.30516
G1 F600.000 E0.30516
G92 E0
G1 X60.471 Y80.638 F12000.000
G1 F600.000 E1.00000
G1 X59.989 Y80.715 F5400.000 E1.00973
G1 X59.756 Y80.000 E1.02468
G1 X59.989 Y79.285 E1.03962
G1 X60.471 Y79.362 E1.04935
G1 X60.471 Y80.533 E1.07265
G1 X59.512 Y81.444 F12000.000
G1 X59.043 Y80.000 F5400.000 E1.10287
G1 X59.512 Y78.556 E1.13308
G1 X60.941 Y77.517 E1.16822
G1 X61.150 Y77.624 E1.17288
G1 X61.150 Y82.376 E1.26743
G1 X60.941 Y82.483 E1.27209
G1 X59.597 Y81.506 E1.30515
G1 F600.000 E0.30515
G92 E0
G1 Z1.000 F12000.000
G1 X99.093 Y80.000
G1 F600.000 E1.00000
G1 X99.553 Y78.585 F5400.000 E1.02960
G1 X100.941 Y77.576 E1.06375
G1 X101.150 Y77.683 E1.06841
G1 X101.150 Y82.317 E1.16062
G1 X100.941 Y82.424 E1.16528
G1 X99.553 Y81.415 E1.19943
G1 X99.125 Y80.100 E1.22694
G1 F600.000 E0.22694
G92 E0
G1 X61.150 Y82.317 F12000.000
G1 F600.000 E1.00000
G1 X60.941 Y82.424 F5400.000 E1.00466
G1 X59.553 Y81.415 E1.03881
G1 X59.093 Y80.000 E1.06841
G1 X59.553 Y78.585 E1.09801
G1 X60.941 Y77.576 E1.13216
G1 X61.150 Y77.683 E1.13682
G1 X61.150 Y82.212 E1.22694
G1 X60.297 Y80.945 F12000.000
G1 X60.259 Y80.770 F12000.000 E1.23050
G1 X60.139 Y80.075 E1.24453
G1 X60.139 Y79.925 E1.24753
G1 X60.187 Y79.845 E1.24938
G1 X60.197 Y79.577 E1.25472
G1 X60.230 Y79.534 E1.25580
G1 X60.297 Y79.055 E1.26541
G1 F600.000 E0.26541
G92 E0
G1 X100.139 Y79.925 F12000.000
G1 F600.000 E1.00000
G1 X100.139 Y80.075 F12000.000 E1.00300
G1 X100.259 Y80.770 E1.01703
G1 X100.297 Y80.945 E1.02059
G1 X100.139 Y79.925 F12000.000
G1 X100.187 Y79.845 F12000.000 E1.02244
G1 X100.197 Y79.577 E1.02778
G1 X100.230 Y79.534 E1.02886
G1 X100.297 Y79.055 E1.03847
G1 F600.000 E0.03847
G92 E0
G1 Z1.200 F12000.000
G1 X99.593 Y78.615
G1 F600.000 E1.00000
G1 X100.941 Y77.635 F5400.000 E1.03316
G1 X101.150 Y77.741 E1.03782
G1 X101.150 Y82.259 E1.12769
G1 X100.941 Y82.365 E1.13235
G1 X99.593 Y81.385 E1.16551
G1 X99.143 Y80.000 E1.19449
G1 X99.561 Y78.714 E1.22139
G1 F600.000 E0.22139
G92 E0
G1 X61.150 Y77.741 F12000.000
G1 F600.000 E1.00000
G1 X61.150 Y82.259 F5400.000 E1.08988
G1 X60.941 Y82.365 E1.09454
G1 X59.593 Y81.385 E1.12769
G1 X59.143 Y80.000 E1.15667
G1 X59.593 Y78.615 E1.18566
G1 X60.941 Y77.635 E1.21881
G1 X61.056 Y77.694 E1.22138
G1 X60.262 Y79.242 F12000.000
G1 X60.215 Y80.417 F12000.000 E1.24479
G1 X60.262 Y80.758 E1.25164
G1 F600.000 E0.25164
G92 E0
G1 X100.215 Y80.417 F12000.000
G1 F600.000 E1.00000
G1 X100.262 Y79.242 F12000.000 E1.02341
G1 X100.215 Y80.417 F12000.000
G1 X100.262 Y80.758 F12000.000 E1.03025
G1 F600.000 E0.03025
G92 E0
G1 Z1.400 F12000.000
G1 X99.634 Y81.356
G1 F600.000 E1.00000
G1 X99.193 Y80.000 F5400.000 E1.02837
G1 X99.634 Y78.644 E1.05674
G1 X100.941 Y77.694 E1.08890
G1 X101.150 Y77.800 E1.09356
G1 X101.150 Y82.200 E1.18110
G1 X100.941 Y82.306 E1.18576
G1 X99.718 Y81.418 E1.21583
G1 F600.000 E0.21583
G92 E0
G1 X61.150 Y82.200 F12000.000
G1 F600.000 E1.00000
G1 X60.941 Y82.306 F5400.000 E1.00466
G1 X59.634 Y81.356 E1.03682
G1 X59.193 Y80.000 E1.06519
G1 X59.634 Y78.644 E1.09356
G1 X60.941 Y77.694 E1.12572
G1 X61.150 Y77.800 E1.13038
G1 X61.150 Y82.095 E1.21583
G1 X60.353 Y80.657 F12000.000
G1 X60.279 Y80.342 F12000.000 E1.22227
G1 X60.276 Y79.257 E1.24385
G1 F600.000 E0.24385
G92 E0
G1 X100.276 Y79.257 F12000.000
G1 F600.000 E1.00000
G1 X100.279 Y80.342 F12000.000 E1.02158
G1 X100.353 Y80.657 E1.02802
G1 F600.000 E0.02802
G92 E0
G1 Z1.600 F12000.000
G1 X99.674 Y81.327
G1 F600.000 E1.00000
G1 X99.243 Y80.000 F5400.000 E1.02775
G1 X99.674 Y78.673 E1.05551
G1 X100.941 Y77.753 E1.08667
G1 X101.150 Y77.859 E1.09133
G1 X101.150 Y82.141 E1.17653
G1 X100.941 Y82.247 E1.18119
G1 X99.759 Y81.388 E1.21027
G1 F600.000 E0.21027
G92 E0
G1 X61.150 Y82.141 F12000.000
G1 F600.000 E1.00000
G1 X60.941 Y82.247 F5400.000 E1.00466
G1 X59.674 Y81.327 E1.03583
G1 X59.243 Y80.000 E1.06358
G1 X59.674 Y78.673 E1.09133
G1 X60.941 Y77.753 E1.12250
G1 X61.150 Y77.859 E1.12716
G1 X61.150 Y82.036 E1.21027
G1 X60.361 Y80.627 F12000.000
G1 X60.294 Y80.331 F12000.000 E1.21632
G1 X60.291 Y79.273 E1.23737
G1 F600.000 E0.23737
G92 E0
G1 X100.291 Y79.273 F12000.000
G1 F600.000 E1.00000
G1 X100.294 Y80.331 F12000.000 E1.02105
G1 X100.361 Y80.627 E1.02710
G1 F600.000 E0.02710
G92 E0
G1 Z1.800 F12000.000
G1 X99.714 Y81.297
G1 F600.000 E1.00000
G1 X99.293 Y80.000 F5400.000 E1.02714
G1 X99.714 Y78.703 E1.05428
G1 X100.941 Y77.811 E1.08445
G1 X101.150 Y77.918 E1.08911
G1 X101.150 Y82.082 E1.17197
G1 X100.941 Y82.189 E1.17663
G1 X99.799 Y81.359 E1.20471
G1 F600.000 E0.20471
G92 E0
G1 X61.150 Y82.082 F12000.000
G1 F600.000 E1.00000
G1 X60.941 Y82.189 F5400.000 E1.00466
G1 X59.714 Y81.297 E1.03483
G1 X59.293 Y80.000 E1.06197
G1 X59.714 Y78.703 E1.08911
G1 X60.941 Y77.811 E1.11928
G1 X61.150 Y77.918 E1.12394
G1 X61.150 Y81.977 E1.20471
G1 X60.416 Y80.504 F12000.000
G1 X60.289 Y80.328 F12000.000 E1.20903
G1 X60.277 Y79.603 E1.22348
G1 X60.308 Y79.289 E1.22974
G1 F600.000 E0.22974
G92 E0
G1 X100.277 Y79.603 F12000.000
G1 F600.000 E1.00000
G1 X100.289 Y80.328 F12000.000 E1.01444
G1 X100.416 Y80.504 E1.01876
G1 X100.277 Y79.603 F12000.000
G1 X100.308 Y79.289 F12000.000 E1.02503
G1 F600.000 E0.02503
G92 E0
G1 Z2.000 F12000.000
G1 X99.755 Y78.732
G1 F600.000 E1.00000
G1 X100.941 Y77.870 F5400.000 E1.02918
G1 X101.150 Y77.976 E1.03384
G1 X101.150 Y82.024 E1.11436
G1 X100.941 Y82.130 E1.11902
G1 X99.755 Y81.268 E1.14820
G1 X99.343 Y80.000 E1.17472
G1 X99.722 Y78.832 E1.19916
G1 F600.000 E0.19916
G92 E0
G1 X61.150 Y77.976 F12000.000
G1 F600.000 E1.00000
G1 X61.150 Y82.024 F5400.000 E1.08052
G1 X60.941 Y82.130 E1.08518
G1 X59.755 Y81.268 E1.11436
G1 X59.343 Y80.000 E1.14088
G1 X59.755 Y78.732 E1.16741
G1 X60.941 Y77.870 E1.19659
G1 X61.056 Y77.929 E1.19916
G1 F600.000 E0.19916
G92 E0
G1 Z2.200 F12000.000
G1 X99.393 Y80.000
G1 F600.000 E1.00000
G1 X99.795 Y78.761 F5400.000 E1.02591
G1 X100.941 Y77.929 E1.05409
G1 X101.150 Y78.035 E1.05875
G1 X101.150 Y81.965 E1.13694
G1 X100.941 Y82.071 E1.14160
G1 X99.795 Y81.239 E1.16978
G1 X99.425 Y80.100 E1.19360
G1 F600.000 E0.19360
G92 E0
G1 X61.150 Y81.965 F12000.000
G1 F600.000 E1.00000
G1 X60.941 Y82.071 F5400.000 E1.00466
G1 X59.795 Y81.239 E1.03284
G1 X59.393 Y80.000 E1.05875
G1 X59.795 Y78.761 E1.08466
G1 X60.941 Y77.929 E1.11285
G1 X61.150 Y78.035 E1.11751
G1 X61.150 Y81.860 E1.19360
G1 F600.000 E0.19360
G92 E0
G1 Z2.400 F12000.000
G1 X99.449 Y80.000
G1 F600.000 E1.00000
G1 X99.841 Y78.794 F5400.000 E1.02522
G1 X100.941 Y77.995 E1.05228
G1 X101.150 Y78.101 E1.05694
G1 X101.150 Y81.899 E1.13250
G1 X100.941 Y82.005 E1.13716
G1 X99.841 Y81.206 E1.16423
G1 X99.481 Y80.100 E1.18736
G1 F600.000 E0.18736
G92 E0
G1 X61.150 Y81.899 F12000.000
G1 F600.000 E1.00000
G1 X60.941 Y82.005 F5400.000 E1.00466
G1 X59.841 Y81.206 E1.03173
G1 X59.449 Y80.000 E1.05694
G1 X59.841 Y78.794 E1.08216
G1 X60.941 Y77.995 E1.10923
G1 X61.150 Y78.101 E1.11389
G1 X61.150 Y81.794 E1.18736
G1 F600.000 E0.18736
G92 E0
G1 Z2.600 F12000.000
G1 X99.661 Y80.000
G1 F600.000 E1.00000
G1 X100.012 Y78.919 F5400.000 E1.02262
G1 X100.941 Y78.244 E1.04547
G1 X101.150 Y78.350 E1.05013
G1 X101.150 Y81.650 E1.11578
G1 X100.941 Y81.756 E1.12044
G1 X100.012 Y81.081 E1.14329
G1 X99.693 Y80.100 E1.16382
G1 F600.000 E0.16382
G92 E0
G1 X61.150 Y81.650 F12000.000
G1 F600.000 E1.00000
G1 X60.941 Y81.756 F5400.000 E1.00466
G1 X60.012 Y81.081 E1.02751
G1 X59.661 Y80.000 E1.05013
G1 X60.012 Y78.919 E1.07274
G1 X60.941 Y78.244 E1.09560
G1 X61.150 Y78.350 E1.10026
G1 X61.150 Y81.545 E1.16382
G1 F600.000 E0.16382
G92 E0
G1 Z2.800 F12000.000
G1 X99.873 Y80.000
G1 F600.000 E1.00000
G1 X100.183 Y79.043 F5400.000 E1.02001
G1 X100.941 Y78.493 E1.03865
G1 X101.150 Y78.599 E1.04331
G1 X101.150 Y81.401 E1.09906
G1 X100.941 Y81.507 E1.10372
G1 X100.183 Y80.957 E1.12236
G1 X99.905 Y80.100 E1.14028
G1 F600.000 E0.14028
G92 E0
G1 X61.150 Y81.401 F12000.000
G1 F600.000 E1.00000
G1 X60.941 Y81.507 F5400.000 E1.00466
G1 X60.183 Y80.957 E1.02330
G1 X59.873 Y80.000 E1.04331
G1 X60.183 Y79.043 E1.06332
G1 X60.941 Y78.493 E1.08196
G1 X61.150 Y78.599 E1.08662
G1 X61.150 Y81.296 E1.14028
G1 F600.000 E0.14028
G92 E0
G1 Z3.000 F12000.000
G1 X100.084 Y80.000
G1 F600.000 E1.00000
G1 X100.355 Y79.168 F5400.000 E1.01741
G1 X100.941 Y78.742 E1.03183
G1 X101.150 Y78.848 E1.03649
G1 X101.150 Y81.152 E1.08234
G1 X100.941 Y81.258 E1.08700
G1 X100.355 Y80.832 E1.10142
G1 X100.117 Y80.100 E1.11674
G1 F600.000 E0.11674
G92 E0
G1 X61.150 Y81.152 F12000.000
G1 F600.000 E1.00000
G1 X60.941 Y81.258 F5400.000 E1.00466
G1 X60.355 Y80.832 E1.01909
G1 X60.084 Y80.000 E1.03649
G1 X60.355 Y79.168 E1.05390
G1 X60.941 Y78.742 E1.06833
G1 X61.150 Y78.848 E1.07299
G1 X61.150 Y81.047 E1.11674
G1 F600.000 E0.11674
G92 E0
G1 Z3.200 F12000.000
G1 X100.296 Y80.000
G1 F600.000 E1.00000
G1 X100.652 Y78.905 F5400.000 E1.02291
G1 X101.150 Y78.984 E1.03294
G1 X101.150 Y81.016 E1.07338
G1 X100.652 Y81.095 E1.08341
G1 X100.328 Y80.100 E1.10424
G1 F600.000 E0.10424
G92 E0
G1 X61.150 Y81.016 F12000.000
G1 F600.000 E1.00000
G1 X60.652 Y81.095 F5400.000 E1.01003
G1 X60.296 Y80.000 E1.03294
G1 X60.652 Y78.905 E1.05585
G1 X61.150 Y78.984 E1.06589
G1 X61.150 Y80.911 E1.10424
G1 F600.000 E0.10424
G92 E0
G1 Z3.400 F12000.000
G1 X60.907 Y80.431
G1 F600.000 E1.00000
G1 X61.185 Y80.995 F5400.000 E1.01252
G1 X60.907 Y80.431 F12000.000
G1 X60.867 Y80.206 F5400.000 E1.01707
G1 X60.835 Y80.000 E1.02121
G1 X61.185 Y79.005 E1.04220
G1 F600.000 E0.04220
G92 E0
G1 X100.835 Y80.000 F12000.000
G1 F600.000 E1.00000
G1 X101.185 Y79.005 F5400.000 E1.02099
G1 X100.835 Y80.000 F12000.000
G1 X100.867 Y80.206 F5400.000 E1.02513
G1 X100.907 Y80.431 E1.02968
G1 X101.185 Y80.995 E1.04220
G1 F600.000 E0.04220
G92 E0
G1 Z3.600 F12000.000
G1 X61.001 Y80.363
G1 F600.000 E1.00000
G1 X61.234 Y80.835 F5400.000 E1.01048
G1 X61.001 Y80.363 F12000.000
G1 X60.961 Y80.175 F5400.000 E1.01430
G1 X60.950 Y80.000 E1.01779
G1 X61.234 Y79.165 E1.03534
G1 F600.000 E0.03534
G92 E0
G1 X100.950 Y80.000 F12000.000
G1 F600.000 E1.00000
G1 X101.234 Y79.165 F5400.000 E1.01755
G1 X100.950 Y80.000 F12000.000
G1 X100.961 Y80.175 F5400.000 E1.02104
G1 X101.001 Y80.363 E1.02486
G1 X101.234 Y80.835 E1.03534
G1 F600.000 E0.03534
G92 E0
G1 Z3.800 F12000.000
G1 X61.028 Y80.306
G1 F600.000 E1.00000
