; generated by Slic3r 0.8.3-dev on 2012-06-11 at 16:26:04

; layer_height = 0.2
; perimeters = 2
; solid_layers = 5
; fill_density = 0.3
; nozzle_diameter = 0.5
; filament_diameter = 2.9
; extrusion_multiplier = 1
; perimeter_speed = 90
; infill_speed = 200
; travel_speed = 200
; scale = 1
; single wall width = 0.70mm

;G28 ; home all axes
G90 ; use absolute coordinates
G21 ; set units to millimeters
G92 E0 ; reset extrusion distance
M82 ; use absolute distances for extrusion
G1 Z0.200 F12000.000
G1 X42.570 Y68.183
G1 F600.000 E1.00000
G1 X44.640 Y67.582 F1080.000 E1.04288
G1 X45.200 Y67.472 E1.05423
G1 X45.770 Y67.422 E1.06562
G1 X46.060 Y67.412 E1.07139
G1 X114.280 Y67.562 E2.42869
G1 X114.620 Y67.593 E2.43548
G1 X114.960 Y67.642 E2.44232
G1 X115.620 Y67.793 E2.45578
G1 X117.750 Y68.433 E2.50003
G1 X118.070 Y68.552 E2.50683
G1 X118.980 Y69.032 E2.52730
G1 X120.830 Y70.242 E2.57128
G1 X121.360 Y70.672 E2.58486
G1 X121.840 Y71.162 E2.59851
G1 X123.070 Y72.582 E2.63589
G1 X123.480 Y73.123 E2.64938
G1 X123.670 Y73.412 E2.65627
G1 X123.830 Y73.703 E2.66286
G1 X124.880 Y75.972 E2.71262
G1 X125.070 Y76.522 E2.72420
G1 X125.250 Y77.373 E2.74149
G1 X125.550 Y79.562 E2.78547
G1 X125.570 Y79.892 E2.79204
G1 X125.570 Y80.222 E2.79861
G1 X125.550 Y80.562 E2.80539
G1 X125.200 Y83.042 E2.85522
G1 X125.070 Y83.602 E2.86665
G1 X124.880 Y84.153 E2.87823
G1 X123.830 Y86.433 E2.92817
G1 X123.670 Y86.722 E2.93476
G1 X123.480 Y87.012 E2.94166
G1 X123.070 Y87.552 E2.95515
G1 X121.600 Y89.222 E2.99942
G1 X121.360 Y89.463 E3.00617
G1 X120.830 Y89.892 E3.01975
G1 X118.980 Y91.102 E3.06373
G1 X118.070 Y91.582 E3.08420
G1 X117.420 Y91.812 E3.09792
G1 X115.350 Y92.412 E3.14080
G1 X114.790 Y92.522 E3.15215
G1 X114.220 Y92.572 E3.16353
G1 X113.930 Y92.582 E3.16931
G1 X45.710 Y92.422 E4.52660
G1 X45.380 Y92.392 E4.53320
G1 X44.720 Y92.282 E4.54651
G1 X42.310 Y91.593 E4.59639
G1 X41.770 Y91.373 E4.60799
G1 X41.240 Y91.102 E4.61982
G1 X39.150 Y89.732 E4.66954
G1 X38.880 Y89.532 E4.67623
G1 X38.390 Y89.082 E4.68946
G1 X36.750 Y87.203 E4.73910
G1 X36.420 Y86.733 E4.75052
G1 X36.130 Y86.233 E4.76202
G1 X35.110 Y83.992 E4.81099
G1 X34.920 Y83.453 E4.82238
G1 X34.740 Y82.612 E4.83947
G1 X34.440 Y80.422 E4.88345
G1 X34.420 Y80.093 E4.89003
G1 X34.420 Y79.752 E4.89680
G1 X34.440 Y79.422 E4.90337
G1 X34.790 Y76.953 E4.95301
G1 X34.920 Y76.392 E4.96444
G1 X35.220 Y75.582 E4.98163
G1 X36.130 Y73.612 E5.02480
G1 X36.420 Y73.112 E5.03630
G1 X36.750 Y72.642 E5.04773
G1 X38.400 Y70.763 E5.09750
G1 X38.640 Y70.522 E5.10425
G1 X39.160 Y70.093 E5.11768
G1 X41.010 Y68.892 E5.16155
G1 X41.920 Y68.412 E5.18202
G1 X42.470 Y68.216 E5.19365
G1 F600.000 E4.19365
G92 E0
G1 X43.454 Y83.070 F12000.000
G1 F600.000 E1.00000
G1 X42.401 Y81.062 F1080.000 E1.04511
G1 X42.401 Y78.795 E1.09021
G1 X43.454 Y76.788 E1.13532
G1 X45.373 Y75.463 E1.18171
G1 X45.400 Y75.490 E1.18247
G1 X47.571 Y75.227 E1.22597
G1 X49.691 Y76.030 E1.27108
G1 X51.194 Y77.727 E1.31619
G1 X51.737 Y79.929 E1.36129
G1 X51.194 Y82.130 E1.40640
G1 X49.691 Y83.827 E1.45151
G1 X47.571 Y84.631 E1.49662
G1 X45.320 Y84.358 E1.54172
G1 X43.541 Y83.129 E1.58474
G1 X42.691 Y84.901 F12000.000
G1 X41.465 Y83.486 F1080.000 E1.62200
G1 X40.687 Y81.782 E1.65926
G1 X40.420 Y79.929 E1.69652
G1 X40.687 Y78.075 E1.73378
G1 X41.465 Y76.371 E1.77104
G1 X42.691 Y74.956 E1.80830
G1 X44.267 Y73.944 E1.84557
G1 X46.064 Y73.416 E1.88283
G1 X47.936 Y73.416 E1.92009
G1 X49.733 Y73.944 E1.95735
G1 X51.309 Y74.956 E1.99461
G1 X52.535 Y76.371 E2.03187
G1 X53.313 Y78.075 E2.06913
G1 X53.580 Y79.929 E2.10639
G1 X53.313 Y81.782 E2.14365
G1 X52.535 Y83.486 E2.18091
G1 X51.309 Y84.901 E2.21817
G1 X49.733 Y85.914 E2.25543
G1 X47.936 Y86.442 E2.29269
G1 X46.064 Y86.442 E2.32995
G1 X44.267 Y85.914 E2.36721
G1 X42.780 Y84.958 E2.40239
G1 F600.000 E1.40239
G92 E0
G1 X52.259 Y81.728 F12000.000
G1 F600.000 E1.00000
G1 X52.665 Y79.792 F2400.000 E1.03934
G1 X52.013 Y77.271 E1.09116
G1 X50.330 Y75.367 E1.14170
G1 X49.209 Y74.787 E1.16682
G1 X47.671 Y74.282 E1.19903
G1 X45.427 Y74.571 E1.24405
G1 X43.447 Y75.642 E1.28883
G1 X42.718 Y76.219 E1.30732
G1 X41.519 Y78.463 E1.35795
G1 X41.414 Y80.054 E1.38967
G1 X41.519 Y81.395 E1.41643
G1 X42.217 Y82.851 E1.44856
G1 X42.718 Y83.639 E1.46714
G1 X43.224 Y84.089 E1.48060
G1 X45.086 Y85.258 E1.52434
G1 X47.671 Y85.576 E1.57617
G1 X50.043 Y84.664 E1.62673
G1 X50.775 Y84.087 E1.64526
G1 X51.822 Y82.869 E1.67723
G1 X52.259 Y81.728 E1.70155
G1 F600.000 E0.70155
G92 E0
G1 X117.194 Y82.273 F12000.000
G1 F600.000 E1.00000
G1 X115.691 Y83.970 F1080.000 E1.04511
G1 X113.571 Y84.773 E1.09021
G1 X111.320 Y84.500 E1.13532
G1 X109.454 Y83.212 E1.18043
G1 X108.401 Y81.205 E1.22554
G1 X108.401 Y78.938 E1.27064
G1 X109.454 Y76.930 E1.31575
G1 X111.373 Y75.606 E1.36214
G1 X111.400 Y75.633 E1.36289
G1 X113.571 Y75.369 E1.40640
G1 X115.691 Y76.173 E1.45151
G1 X117.194 Y77.870 E1.49662
G1 X117.737 Y80.071 E1.54172
G1 X117.219 Y82.171 E1.58474
G1 X118.535 Y83.629 F12000.000
G1 X117.309 Y85.044 F1080.000 E1.62200
G1 X115.733 Y86.056 E1.65926
G1 X113.936 Y86.584 E1.69652
G1 X112.064 Y86.584 E1.73378
G1 X110.267 Y86.056 E1.77104
G1 X108.691 Y85.044 E1.80830
G1 X107.465 Y83.629 E1.84557
G1 X106.687 Y81.925 E1.88283
G1 X106.420 Y80.071 E1.92009
G1 X106.687 Y78.218 E1.95735
G1 X107.465 Y76.514 E1.99461
G1 X108.691 Y75.099 E2.03187
G1 X110.267 Y74.086 E2.06913
G1 X112.064 Y73.558 E2.10639
G1 X113.936 Y73.558 E2.14365
G1 X115.733 Y74.086 E2.18091
G1 X117.309 Y75.099 E2.21817
G1 X118.535 Y76.514 E2.25543
G1 X119.313 Y78.218 E2.29269
G1 X119.580 Y80.071 E2.32995
G1 X119.313 Y81.925 E2.36721
G1 X118.579 Y83.533 E2.40239
G1 X118.259 Y81.870 F12000.000
G1 X118.665 Y79.935 F2400.000 E2.44173
G1 X118.013 Y77.413 E2.49355
G1 X116.330 Y75.510 E2.54409
G1 X115.209 Y74.929 E2.56921
G1 X113.671 Y74.424 E2.60142
G1 X111.427 Y74.713 E2.64644
G1 X109.447 Y75.784 E2.69122
G1 X108.718 Y76.361 E2.70971
G1 X107.519 Y78.605 E2.76033
G1 X107.414 Y80.196 E2.79206
G1 X107.519 Y81.537 E2.81882
G1 X108.217 Y82.993 E2.85094
G1 X108.718 Y83.781 E2.86952
G1 X109.224 Y84.231 E2.88299
G1 X111.086 Y85.400 E2.92673
G1 X113.671 Y85.718 E2.97856
G1 X116.043 Y84.806 E3.02911
G1 X116.775 Y84.230 E3.04764
G1 X117.822 Y83.011 E3.07962
G1 X118.259 Y81.870 E3.10393
G1 F600.000 E2.10393
G92 E0
G1 Z0.400 F12000.000
G1 X51.194 Y82.130
G1 F600.000 E1.00000
G1 X49.691 Y83.827 F5400.000 E1.04511
G1 X47.571 Y84.631 E1.09021
G1 X45.320 Y84.358 E1.13532
G1 X43.454 Y83.070 E1.18043
G1 X42.401 Y81.062 E1.22554
G1 X42.401 Y78.795 E1.27064
G1 X43.454 Y76.788 E1.31575
G1 X45.320 Y75.500 E1.36086
G1 X47.571 Y75.227 E1.40596
G1 X49.691 Y76.030 E1.45107
G1 X51.194 Y77.727 E1.49618
G1 X51.737 Y79.929 E1.54129
G1 X51.219 Y82.028 E1.58430
G1 X52.423 Y83.414 F12000.000
G1 X51.221 Y84.801 F5400.000 E1.62081
G1 X49.678 Y85.793 E1.65732
G1 X47.917 Y86.310 E1.69382
G1 X46.083 Y86.310 E1.73033
G1 X44.322 Y85.793 E1.76683
G1 X42.779 Y84.801 E1.80334
G1 X41.577 Y83.414 E1.83984
G1 X40.815 Y81.745 E1.87635
G1 X40.554 Y79.929 E1.91285
G1 X40.815 Y78.113 E1.94936
G1 X41.577 Y76.444 E1.98587
G1 X42.779 Y75.057 E2.02237
G1 X44.322 Y74.065 E2.05888
G1 X46.083 Y73.548 E2.09538
G1 X47.917 Y73.548 E2.13189
G1 X49.678 Y74.065 E2.16839
G1 X51.221 Y75.057 E2.20490
G1 X52.423 Y76.444 E2.24140
G1 X53.373 Y78.524 E2.28692
G1 X53.244 Y78.524 E2.28948
G1 X53.446 Y79.929 E2.31771
G1 X53.185 Y81.745 E2.35421
G1 X52.467 Y83.318 E2.38863
G1 X52.279 Y81.618 F12000.000
G1 X52.598 Y79.786 F12000.000 E2.42563
G1 X51.969 Y77.299 E2.47668
G1 X50.291 Y75.415 E2.52688
G1 X49.177 Y74.843 E2.55179
G1 X47.656 Y74.336 E2.58369
G1 X45.109 Y74.653 E2.63475
G1 X43.260 Y75.820 E2.67825
G1 X42.400 Y76.811 E2.70435
G1 X41.573 Y78.486 E2.74152
G1 X41.573 Y81.372 E2.79894
G1 X42.265 Y82.812 E2.83073
G1 X42.758 Y83.604 E2.84930
G1 X43.260 Y84.038 E2.86248
G1 X45.109 Y85.204 E2.90599
G1 X47.656 Y85.522 E2.95705
G1 X50.005 Y84.604 E3.00722
G1 X50.738 Y84.035 E3.02568
G1 X51.777 Y82.831 E3.05732
G1 X52.279 Y81.618 E3.08344
G1 F600.000 E2.08344
G92 E0
G1 X117.194 Y82.273 F12000.000
G1 F600.000 E1.00000
G1 X115.691 Y83.970 F5400.000 E1.04511
G1 X113.571 Y84.773 E1.09021
G1 X111.320 Y84.500 E1.13532
G1 X109.454 Y83.212 E1.18043
G1 X108.401 Y81.205 E1.22554
G1 X108.401 Y78.938 E1.27064
G1 X109.454 Y76.930 E1.31575
G1 X111.320 Y75.642 E1.36086
G1 X113.571 Y75.369 E1.40596
G1 X115.691 Y76.173 E1.45107
G1 X117.194 Y77.870 E1.49618
G1 X117.737 Y80.071 E1.54129
G1 X117.219 Y82.171 E1.58430
G1 X118.423 Y83.556 F12000.000
G1 X117.221 Y84.943 F5400.000 E1.62081
G1 X115.678 Y85.935 E1.65732
G1 X113.917 Y86.452 E1.69382
G1 X112.083 Y86.452 E1.73033
G1 X110.322 Y85.935 E1.76683
G1 X108.779 Y84.943 E1.80334
G1 X107.577 Y83.556 E1.83984
G1 X106.815 Y81.887 E1.87635
G1 X106.554 Y80.071 E1.91285
G1 X106.815 Y78.255 E1.94936
G1 X107.577 Y76.586 E1.98587
G1 X108.779 Y75.199 E2.02237
G1 X110.322 Y74.207 E2.05888
G1 X112.083 Y73.690 E2.09538
G1 X113.917 Y73.690 E2.13189
G1 X115.678 Y74.207 E2.16839
G1 X117.221 Y75.199 E2.20490
G1 X118.423 Y76.586 E2.24140
G1 X119.373 Y78.667 E2.28692
G1 X119.244 Y78.667 E2.28948
G1 X119.446 Y80.071 E2.31771
G1 X119.185 Y81.887 E2.35421
G1 X118.467 Y83.461 E2.38863
G1 X118.279 Y81.761 F12000.000
G1 X118.598 Y79.929 F12000.000 E2.42563
G1 X117.969 Y77.442 E2.47668
G1 X116.291 Y75.558 E2.52688
G1 X115.177 Y74.986 E2.55179
G1 X113.656 Y74.478 E2.58369
G1 X111.109 Y74.796 E2.63475
G1 X109.260 Y75.962 E2.67825
G1 X108.400 Y76.953 E2.70435
G1 X107.573 Y78.628 E2.74152
G1 X107.573 Y81.514 E2.79894
G1 X108.265 Y82.955 E2.83073
G1 X108.758 Y83.747 E2.84930
G1 X109.260 Y84.180 E2.86248
G1 X111.109 Y85.347 E2.90599
G1 X113.656 Y85.664 E2.95705
G1 X116.005 Y84.747 E3.00722
G1 X116.738 Y84.178 E3.02568
G1 X117.777 Y82.974 E3.05732
G1 X118.279 Y81.761 E3.08344
G1 F600.000 E2.08344
G92 E0
G1 Z0.600 F12000.000
G1 X51.194 Y82.130
G1 F600.000 E1.00000
G1 X49.691 Y83.827 F5400.000 E1.04511
G1 X47.571 Y84.631 E1.09021
G1 X45.320 Y84.358 E1.13532
G1 X43.454 Y83.070 E1.18043
G1 X42.401 Y81.062 E1.22554
G1 X42.401 Y78.795 E1.27064
G1 X43.454 Y76.788 E1.31575
G1 X45.320 Y75.500 E1.36086
G1 X47.571 Y75.227 E1.40596
G1 X49.691 Y76.030 E1.45107
G1 X51.194 Y77.727 E1.49618
G1 X51.737 Y79.929 E1.54129
G1 X51.219 Y82.028 E1.58430
G1 X52.311 Y83.342 F12000.000
G1 X51.134 Y84.700 F5400.000 E1.62005
G1 X49.623 Y85.671 E1.65581
G1 X47.898 Y86.178 E1.69156
G1 X46.102 Y86.178 E1.72731
G1 X44.377 Y85.671 E1.76306
G1 X42.866 Y84.700 E1.79881
G1 X41.689 Y83.342 E1.83456
G1 X40.943 Y81.707 E1.87031
G1 X40.687 Y79.929 E1.90606
G1 X40.943 Y78.150 E1.94181
G1 X41.689 Y76.516 E1.97756
G1 X42.866 Y75.158 E2.01331
G1 X44.377 Y74.186 E2.04906
G1 X46.102 Y73.680 E2.08481
G1 X47.898 Y73.680 E2.12056
G1 X49.623 Y74.186 E2.15631
G1 X51.134 Y75.158 E2.19206
G1 X52.311 Y76.516 E2.22781
G1 X53.057 Y78.150 E2.26356
G1 X53.313 Y79.929 E2.29932
G1 X53.057 Y81.707 E2.33507
G1 X52.355 Y83.246 E2.36873
G1 X51.740 Y82.798 F12000.000
G1 X50.255 Y84.401 F12000.000 E2.41220
G1 X49.145 Y84.959 E2.43692
G1 X47.641 Y85.485 E2.46863
G1 X47.488 Y85.331 E2.47294
G1 X47.320 Y85.452 E2.47704
G1 X46.502 Y85.301 E2.49359
G1 X46.082 Y85.329 E2.50197
G1 X45.228 Y85.069 E2.51972
G1 X45.129 Y85.162 E2.52242
G1 X44.328 Y84.658 E2.54126
G1 X44.059 Y84.476 E2.54773
G1 X43.527 Y84.147 E2.56016
G1 X43.282 Y83.884 E2.56732
G1 X43.042 Y83.782 E2.57251
G1 X42.621 Y83.300 F12000.000
G1 X41.879 Y81.915 F12000.000 E2.60375
G1 X41.879 Y81.698 E2.60807
G1 X41.736 Y81.629 E2.61124
G1 X41.547 Y80.065 E2.64257
G1 X41.612 Y78.507 E2.67361
G1 X42.621 Y76.558 E2.71727
G1 X43.041 Y76.075 F12000.000
G1 X43.280 Y75.976 F12000.000 E2.72240
G1 X43.292 Y75.868 E2.72457
G1 X43.516 Y75.749 E2.72962
G1 X44.322 Y75.210 E2.74891
G1 X45.129 Y74.695 E2.76796
G1 X45.229 Y74.789 E2.77069
G1 X45.448 Y74.644 E2.77592
G1 X47.000 Y74.434 E2.80708
G1 X47.164 Y74.532 E2.81087
G1 X47.320 Y74.405 E2.81487
G1 X47.490 Y74.523 E2.81899
G1 X47.641 Y74.373 E2.82322
G1 X48.236 Y74.581 E2.83578
G1 X49.391 Y75.023 E2.86038
G1 X50.255 Y75.456 E2.87961
G1 X51.729 Y77.055 E2.92287
G1 X51.997 Y77.597 F12000.000
G1 X52.232 Y78.472 F12000.000 E2.94088
G1 X52.302 Y78.789 E2.94735
G1 X52.377 Y79.114 E2.95399
G1 X52.532 Y80.077 E2.97338
G1 X52.221 Y81.609 E3.00448
G1 X51.991 Y81.996 E3.01345
G1 X52.031 Y82.226 E3.01809
G1 F600.000 E2.01809
G92 E0
G1 X117.194 Y82.273 F12000.000
G1 F600.000 E1.00000
G1 X115.691 Y83.970 F5400.000 E1.04511
G1 X113.571 Y84.773 E1.09021
G1 X111.320 Y84.500 E1.13532
G1 X109.454 Y83.212 E1.18043
G1 X108.401 Y81.205 E1.22554
G1 X108.401 Y78.938 E1.27064
G1 X109.454 Y76.930 E1.31575
G1 X111.320 Y75.642 E1.36086
G1 X113.571 Y75.369 E1.40596
G1 X115.691 Y76.173 E1.45107
G1 X117.194 Y77.870 E1.49618
G1 X117.737 Y80.071 E1.54129
G1 X117.219 Y82.171 E1.58430
G1 X118.311 Y83.484 F12000.000
G1 X117.134 Y84.842 F5400.000 E1.62005
G1 X115.623 Y85.814 E1.65581
G1 X113.898 Y86.320 E1.69156
G1 X112.102 Y86.320 E1.72731
G1 X110.377 Y85.814 E1.76306
G1 X108.866 Y84.842 E1.79881
G1 X107.689 Y83.484 E1.83456
G1 X106.943 Y81.850 E1.87031
G1 X106.687 Y80.071 E1.90606
G1 X106.943 Y78.293 E1.94181
G1 X107.689 Y76.658 E1.97756
G1 X108.866 Y75.300 E2.01331
G1 X110.377 Y74.329 E2.04906
G1 X112.102 Y73.822 E2.08481
G1 X113.898 Y73.822 E2.12056
G1 X115.623 Y74.329 E2.15631
G1 X117.134 Y75.300 E2.19206
G1 X118.311 Y76.658 E2.22781
G1 X119.057 Y78.293 E2.26356
G1 X119.313 Y80.071 E2.29932
G1 X119.057 Y81.850 E2.33507
G1 X118.355 Y83.389 E2.36873
G1 X117.740 Y82.940 F12000.000
G1 X116.255 Y84.544 F12000.000 E2.41220
G1 X115.145 Y85.101 E2.43692
G1 X113.641 Y85.627 E2.46863
G1 X113.488 Y85.474 E2.47294
G1 X113.320 Y85.594 E2.47704
G1 X112.502 Y85.444 E2.49359
G1 X112.082 Y85.471 E2.50197
G1 X111.228 Y85.212 E2.51972
G1 X111.129 Y85.305 E2.52242
G1 X110.328 Y84.801 E2.54126
G1 X110.059 Y84.619 E2.54773
G1 X109.527 Y84.290 E2.56016
G1 X109.282 Y84.026 E2.56732
G1 X109.042 Y83.925 E2.57251
G1 X108.621 Y83.442 F12000.000
G1 X107.879 Y82.058 F12000.000 E2.60375
G1 X107.879 Y81.841 E2.60807
G1 X107.736 Y81.771 E2.61124
G1 X107.547 Y80.208 E2.64257
G1 X107.612 Y78.649 E2.67361
G1 X108.621 Y76.700 E2.71727
G1 X109.041 Y76.217 F12000.000
G1 X109.280 Y76.118 F12000.000 E2.72240
G1 X109.292 Y76.010 E2.72457
G1 X109.516 Y75.892 E2.72962
G1 X110.322 Y75.352 E2.74891
G1 X111.129 Y74.838 E2.76796
G1 X111.229 Y74.932 E2.77069
G1 X111.448 Y74.786 E2.77592
G1 X113.000 Y74.577 E2.80708
G1 X113.164 Y74.674 E2.81087
G1 X113.320 Y74.548 E2.81487
G1 X113.490 Y74.666 E2.81899
G1 X113.641 Y74.515 E2.82322
G1 X114.236 Y74.724 E2.83578
G1 X115.391 Y75.166 E2.86038
G1 X116.255 Y75.599 E2.87961
G1 X117.729 Y77.197 E2.92287
G1 X117.997 Y77.740 F12000.000
G1 X118.232 Y78.614 F12000.000 E2.94088
G1 X118.302 Y78.932 E2.94735
G1 X118.377 Y79.257 E2.95399
G1 X118.532 Y80.219 E2.97338
G1 X118.221 Y81.751 E3.00448
G1 X117.991 Y82.139 E3.01345
G1 X118.031 Y82.369 E3.01809
G1 F600.000 E2.01809
G92 E0
G1 Z0.800 F12000.000
G1 X51.194 Y82.130
G1 F600.000 E1.00000
G1 X49.691 Y83.827 F5400.000 E1.04511
G1 X47.571 Y84.631 E1.09021
G1 X45.320 Y84.358 E1.13532
G1 X43.454 Y83.070 E1.18043
G1 X42.401 Y81.062 E1.22554
G1 X42.401 Y78.795 E1.27064
G1 X43.454 Y76.788 E1.31575
G1 X45.320 Y75.500 E1.36086
G1 X47.571 Y75.227 E1.40596
G1 X49.691 Y76.030 E1.45107
G1 X51.194 Y77.727 E1.49618
G1 X51.737 Y79.929 E1.54129
G1 X51.219 Y82.028 E1.58430
G1 X52.199 Y83.270 F12000.000
G1 X51.047 Y84.599 F5400.000 E1.61930
G1 X49.567 Y85.550 E1.65430
G1 X47.879 Y86.046 E1.68929
G1 X46.121 Y86.046 E1.72429
G1 X44.433 Y85.550 E1.75928
G1 X42.953 Y84.599 E1.79428
G1 X41.801 Y83.270 E1.82927
G1 X41.071 Y81.670 E1.86427
G1 X40.820 Y79.929 E1.89926
G1 X41.071 Y78.188 E1.93426
G1 X41.801 Y76.588 E1.96925
G1 X42.953 Y75.258 E2.00425
G1 X44.433 Y74.307 E2.03925
G1 X46.121 Y73.812 E2.07424
G1 X47.879 Y73.812 E2.10924
G1 X49.567 Y74.307 E2.14423
G1 X51.047 Y75.258 E2.17923
G1 X52.199 Y76.588 E2.21422
G1 X52.929 Y78.188 E2.24922
G1 X53.180 Y79.929 E2.28421
G1 X52.929 Y81.670 E2.31921
G1 X52.242 Y83.174 E2.35212
G1 X51.062 Y83.310 F12000.000
G1 X51.099 Y83.480 F12000.000 E2.35558
G1 X50.852 Y83.559 E2.36073
G1 X50.888 Y83.711 E2.36385
